; generated by PrusaSlicer 2.3.0+win64 on 2021-05-04 at 14:57:17 UTC

; 

; external perimeters extrusion width = 0.45mm
; perimeters extrusion width = 0.45mm
; infill extrusion width = 0.45mm
; solid infill extrusion width = 0.45mm
; top infill extrusion width = 0.40mm
; first layer extrusion width = 0.42mm

M73 P0 R42
M73 Q0 S42
M201 X1000 Y1000 Z200 E5000 ; sets maximum accelerations, mm/sec^2
M203 X200 Y200 Z12 E120 ; sets maximum feedrates, mm/sec
M204 P1250 R1250 T1250 ; sets acceleration (P, T) and retract acceleration (R), mm/sec^2
M205 X8.00 Y8.00 Z0.40 E4.50 ; sets the jerk limits, mm/sec
M205 S0 T0 ; sets the minimum extruding and travel feed rate, mm/sec
M107
;TYPE:Custom
M862.3 P "MK3S" ; printer model check
M862.1 P0.4 ; nozzle diameter check
M115 U3.9.3 ; tell printer latest fw version
G90 ; use absolute coordinates
M83 ; extruder relative mode
M104 S215 ; set extruder temp
M140 S60 ; set bed temp
M190 S60 ; wait for bed temp
M109 S215 ; wait for extruder temp
G28 W ; home all without mesh bed level
G80 ; mesh bed leveling
G1 Y-3.0 F1000.0 ; go outside print area
G92 E0.0
G1 X60.0 E9.0 F1000.0 ; intro line
G1 X100.0 E12.5 F1000.0 ; intro line
G92 E0.0
M221 S95

; Don't change E values below. Excessive value can damage the printer.
M907 E430 ; set extruder motor current
G21 ; set units to millimeters
G90 ; use absolute coordinates
M83 ; use relative distances for extrusion
M900 K0.05 ; Filament gcode LA 1.5
M900 K30 ; Filament gcode LA 1.0
;LAYER_CHANGE
;Z:0.2
;HEIGHT:0.2
;BEFORE_LAYER_CHANGE
G92 E0.0
;0.2


G1 E-0.80000 F2100.000
G1 Z0.400 F10800.000
;AFTER_LAYER_CHANGE
;0.2
G1 X57.958 Y50.146
G1 Z0.200
G1 E0.80000 F2100.000
M204 S1000
;TYPE:Skirt
;WIDTH:0.42
G1 F1200.000
G1 X61.667 Y46.298 E0.16757
G1 X65.141 Y43.101 E0.14802
G1 X68.476 Y40.349 E0.13558
G1 X71.981 Y37.750 E0.13682
G1 X75.783 Y35.234 E0.14295
G1 X80.097 Y32.719 E0.15656
G1 X84.300 Y30.583 E0.14782
G1 X88.898 Y28.568 E0.15741
G1 X93.279 Y26.946 E0.14646
G1 X97.473 Y25.643 E0.13772
G1 X101.884 Y24.528 E0.14264
G1 X106.212 Y23.678 E0.13830
G1 X111.140 Y22.992 E0.15601
G1 X115.721 Y22.623 E0.14410
G1 X120.543 Y22.496 E0.15124
G1 X123.404 Y22.554 E0.08974
G1 X126.839 Y22.753 E0.10786
G1 X130.362 Y23.103 E0.11100
G1 X133.816 Y23.596 E0.10942
G1 X137.393 Y24.261 E0.11408
G1 X139.998 Y24.847 E0.08371
G1 X142.768 Y25.564 E0.08971
G1 X145.902 Y26.502 E0.10258
G1 X149.095 Y27.597 E0.10584
G1 X151.654 Y28.579 E0.08592
G1 X154.385 Y29.734 E0.09298
G1 X157.491 Y31.191 E0.10758
G1 X160.223 Y32.606 E0.09644
G1 X162.686 Y33.992 E0.08863
G1 X165.296 Y35.581 E0.09580
G1 X168.287 Y37.570 E0.11262
G1 X171.387 Y39.837 E0.12043
G1 X173.849 Y41.803 E0.09880
G1 X178.080 Y45.548 E0.17714
G1 X180.556 Y47.996 E0.10918
G1 X182.194 Y49.753 E0.07532
G1 X184.074 Y51.990 E0.09162
G1 X185.644 Y54.056 E0.08136
G1 X187.125 Y56.229 E0.08246
G1 X188.490 Y58.477 E0.08246
G1 X189.838 Y60.964 E0.08870
G1 X191.011 Y63.435 E0.08576
G1 X192.029 Y65.917 E0.08411
G1 X192.979 Y68.619 E0.08980
G1 X193.726 Y71.159 E0.08301
G1 X194.340 Y73.734 E0.08301
G1 X194.816 Y76.310 E0.08214
G1 X195.141 Y78.637 E0.07367
G1 X195.363 Y81.047 E0.07586
G1 X195.468 Y83.464 E0.07586
G1 X195.462 Y130.883 E1.48678
G1 X195.141 Y135.325 E0.13965
G1 X194.498 Y139.483 E0.13191
G1 X193.432 Y143.866 E0.14142
G1 X192.098 Y147.893 E0.13301
G1 X190.860 Y150.871 E0.10115
G1 X189.315 Y154.025 E0.11010
G1 X187.691 Y156.853 E0.10224
G1 X185.866 Y159.604 E0.10352
G1 X183.950 Y162.156 E0.10005
G1 X181.877 Y164.581 E0.10005
G1 X179.490 Y167.037 E0.10736
G1 X177.145 Y169.175 E0.09950
G1 X174.629 Y171.192 E0.10115
G1 X171.843 Y173.153 E0.10681
G1 X169.125 Y174.824 E0.10005
G1 X166.322 Y176.312 E0.09950
G1 X163.270 Y177.704 E0.10517
G1 X160.257 Y178.855 E0.10115
G1 X157.210 Y179.802 E0.10005
G1 X153.833 Y180.632 E0.10902
G1 X151.471 Y181.070 E0.07532
G1 X149.074 Y181.398 E0.07586
G1 X146.449 Y181.632 E0.08263
G1 X143.997 Y181.735 E0.07696
G1 X98.287 Y181.743 E1.43318
G1 X95.641 Y181.669 E0.08301
G1 X92.907 Y181.454 E0.08597
G1 X90.403 Y181.135 E0.07916
G1 X87.866 Y180.680 E0.08081
G1 X85.356 Y180.096 E0.08081
G1 X82.785 Y179.372 E0.08374
G1 X80.277 Y178.523 E0.08301
M73 P1 R42
G1 X77.850 Y177.557 E0.08191
M73 Q1 S42
G1 X75.292 Y176.387 E0.08819
G1 X72.166 Y174.723 E0.11104
G1 X69.165 Y172.844 E0.11102
G1 X66.159 Y170.677 E0.11618
G1 X63.326 Y168.299 E0.11598
G1 X59.966 Y165.041 E0.14674
G1 X56.888 Y161.692 E0.14263
G1 X54.155 Y158.389 E0.13442
G1 X51.658 Y155.036 E0.13107
G1 X49.233 Y151.413 E0.13668
G1 X47.111 Y147.864 E0.12966
G1 X45.140 Y144.165 E0.13143
G1 X43.402 Y140.474 E0.12791
G1 X41.790 Y136.563 E0.13262
G1 X40.370 Y132.553 E0.13339
G1 X39.168 Y128.524 E0.13183
G1 X38.117 Y124.194 E0.13970
G1 X37.235 Y119.422 E0.15215
G1 X36.679 Y115.118 E0.13610
G1 X36.300 Y109.754 E0.16860
G1 X36.251 Y105.013 E0.14866
G1 X36.449 Y100.537 E0.14047
G1 X36.902 Y95.958 E0.14428
G1 X37.566 Y91.633 E0.13720
G1 X38.576 Y86.833 E0.15379
G1 X39.919 Y81.938 E0.15915
G1 X41.377 Y77.586 E0.14391
G1 X43.253 Y72.909 E0.15801
G1 X45.085 Y68.988 E0.13568
G1 X47.171 Y65.071 E0.13914
G1 X49.438 Y61.309 E0.13773
G1 X52.135 Y57.338 E0.15051
G1 X55.132 Y53.439 E0.15420
G1 X57.919 Y50.192 E0.13416
; printing object body909811 id:0 copy 0
;WIPE_START
G1 F8640.000
G1 X60.201 Y47.820 E-0.76000
;WIPE_END
G1 E-0.04000 F2100.000
G1 Z0.600 F10800.000
G1 X95.910 Y87.292
G1 Z0.200
G1 E0.80000 F2100.000
;TYPE:Perimeter
G1 F1200.000
G1 X96.729 Y86.603 E0.03358
G1 X100.721 Y88.761 E0.14228
G1 X100.384 Y82.984 E0.18144
M73 P1 R41
G1 X101.372 Y82.539 E0.03398
G1 X115.638 Y96.725 E0.63080
G1 X141.588 Y90.987 E0.83330
G1 X142.190 Y91.852 E0.03304
G1 X134.061 Y104.494 E0.47125
G1 X131.209 Y103.719 E0.09268
G1 X121.898 Y118.199 E0.53976
G1 X114.699 Y120.522 E0.23720
G1 X114.699 Y129.033 E0.26685
G1 X113.724 Y129.434 E0.03305
G1 X106.119 Y121.769 E0.33855
G1 X107.954 Y110.567 E0.35591
G1 X102.595 Y107.260 E0.19746
G1 X95.929 Y87.349 E0.65837
G1 X96.349 Y87.416 F10800.000
;TYPE:External perimeter
G1 F1200.000
G1 X96.776 Y87.057 E0.01749
G1 X101.137 Y89.415 E0.15545
G1 X100.776 Y83.221 E0.19452
G1 X101.290 Y82.989 E0.01770
G1 X115.518 Y97.138 E0.62912
G1 X141.423 Y91.410 E0.83184
G1 X141.737 Y91.861 E0.01721
G1 X133.894 Y104.058 E0.45467
G1 X131.041 Y103.282 E0.09268
G1 X121.654 Y117.881 E0.54420
G1 X114.322 Y120.248 E0.24158
G1 X114.322 Y128.780 E0.26754
G1 X113.814 Y128.989 E0.01722
G1 X106.523 Y121.640 E0.32460
G1 X108.367 Y110.379 E0.35780
G1 X102.909 Y107.011 E0.20110
G1 X96.368 Y87.472 E0.64604
G1 X96.114 Y87.092 F10800.000
;WIPE_START
G1 F8640.000
G1 X96.776 Y87.057 E-0.13451
G1 X99.158 Y88.345 E-0.62549
;WIPE_END
G1 E-0.04000 F2100.000
G1 Z0.600 F10800.000
G1 X143.450 Y130.100
M73 P2 R41
G1 Z0.200
M73 Q2 S42
G1 E0.80000 F2100.000
;TYPE:Perimeter
G1 F1200.000
G1 X143.330 Y130.144 E0.00401
G1 X143.065 Y130.179 E0.00837
G1 X98.386 Y130.179 E1.40086
G1 X98.233 Y130.166 E0.00484
G1 X98.013 Y130.098 E0.00722
G1 X97.904 Y130.037 E0.00391
G1 X97.781 Y129.938 E0.00495
G1 X96.675 Y128.824 E0.04920
G1 X95.610 Y127.641 E0.04993
G1 X94.626 Y126.435 E0.04881
G1 X93.628 Y125.078 E0.05280
G1 X92.784 Y123.806 E0.04786
G1 X92.003 Y122.495 E0.04786
G1 X91.212 Y121.008 E0.05280
G1 X90.550 Y119.598 E0.04885
G1 X89.945 Y118.126 E0.04989
G1 X89.413 Y116.628 E0.04984
G1 X88.973 Y115.166 E0.04786
G1 X88.572 Y113.560 E0.05191
G1 X88.266 Y112.003 E0.04975
G1 X88.049 Y110.525 E0.04686
G1 X87.884 Y108.847 E0.05286
G1 X87.807 Y107.164 E0.05283
G1 X87.811 Y105.667 E0.04692
G1 X87.892 Y104.083 E0.04975
G1 X88.058 Y102.437 E0.05187
G1 X88.286 Y100.927 E0.04786
G1 X88.598 Y99.369 E0.04984
G1 X88.987 Y97.825 E0.04993
G1 X89.440 Y96.335 E0.04881
G1 X90.009 Y94.751 E0.05280
G1 X90.596 Y93.341 E0.04786
G1 X91.249 Y91.962 E0.04786
G1 X92.042 Y90.476 E0.05280
G1 X92.844 Y89.141 E0.04885
G1 X93.729 Y87.818 E0.04989
G1 X94.677 Y86.542 E0.04984
G1 X95.644 Y85.361 E0.04785
G1 X96.774 Y84.113 E0.05280
G1 X97.876 Y83.012 E0.04885
G1 X99.055 Y81.943 E0.04989
G1 X100.284 Y80.934 E0.04984
G1 X101.509 Y80.024 E0.04786
G1 X102.884 Y79.102 E0.05191
G1 X104.244 Y78.285 E0.04975
G1 X105.561 Y77.579 E0.04686
G1 X107.083 Y76.854 E0.05286
G1 X108.641 Y76.211 E0.05283
G1 X110.050 Y75.707 E0.04692
G1 X111.567 Y75.244 E0.04975
G1 X113.172 Y74.842 E0.05187
G1 X114.669 Y74.544 E0.04786
G1 X116.241 Y74.308 E0.04984
G1 X117.826 Y74.150 E0.04993
G1 X119.217 Y74.079 E0.04368
M73 Q2 S41
G1 X121.003 Y74.067 E0.05600
G1 X122.589 Y74.142 E0.04979
G1 X124.171 Y74.294 E0.04984
G1 X125.747 Y74.525 E0.04992
G1 X127.303 Y74.831 E0.04975
G1 X128.848 Y75.214 E0.04989
G1 X130.370 Y75.672 E0.04984
G1 X131.868 Y76.203 E0.04983
G1 X133.366 Y76.820 E0.05082
G1 X134.776 Y77.483 E0.04886
G1 X136.182 Y78.229 E0.04989
G1 X137.547 Y79.042 E0.04982
G1 X138.950 Y79.977 E0.05284
G1 X140.175 Y80.883 E0.04779
G1 X141.481 Y81.954 E0.05297
G1 X142.566 Y82.933 E0.04581
G1 X143.583 Y83.941 E0.04487
G1 X143.728 Y84.095 E0.00665
G1 X143.844 Y84.283 E0.00691
G1 X143.907 Y84.491 E0.00683
G1 X143.920 Y84.645 E0.00484
G1 X143.920 Y129.336 E1.40126
G1 X143.906 Y129.507 E0.00537
G1 X143.809 Y129.772 E0.00885
G1 X143.688 Y129.933 E0.00631
G1 X143.502 Y130.070 E0.00725
G1 X144.026 Y130.120 F10800.000
;TYPE:External perimeter
G1 F1200.000
G1 X143.789 Y130.340 E0.01011
G1 X143.610 Y130.443 E0.00650
G1 X143.420 Y130.512 E0.00635
G1 X143.089 Y130.556 E0.01044
G1 X98.371 Y130.556 E1.40213
G1 X98.161 Y130.538 E0.00660
G1 X97.864 Y130.447 E0.00975
G1 X97.692 Y130.351 E0.00618
G1 X97.528 Y130.218 E0.00660
G1 X96.401 Y129.084 E0.05014
G1 X95.323 Y127.886 E0.05050
G1 X94.327 Y126.666 E0.04940
G1 X93.318 Y125.294 E0.05339
G1 X92.465 Y124.007 E0.04843
G1 X91.674 Y122.680 E0.04843
G1 X90.875 Y121.177 E0.05339
G1 X90.205 Y119.749 E0.04943
G1 X89.593 Y118.261 E0.05047
G1 X89.055 Y116.745 E0.05042
G1 X88.609 Y115.267 E0.04843
G1 X88.204 Y113.642 E0.05249
G1 X87.895 Y112.067 E0.05033
G1 X87.674 Y110.571 E0.04742
G1 X87.507 Y108.874 E0.05346
G1 X87.430 Y107.172 E0.05342
G1 X87.434 Y105.657 E0.04749
G1 X87.516 Y104.054 E0.05033
G1 X87.684 Y102.390 E0.05246
G1 X87.914 Y100.862 E0.04843
G1 X88.230 Y99.286 E0.05042
G1 X88.623 Y97.724 E0.05050
G1 X89.081 Y96.216 E0.04940
G1 X89.658 Y94.614 E0.05339
G1 X90.251 Y93.188 E0.04843
G1 X90.912 Y91.792 E0.04843
G1 X91.714 Y90.290 E0.05339
G1 X92.526 Y88.939 E0.04943
G1 X93.421 Y87.601 E0.05047
G1 X94.379 Y86.310 E0.05042
G1 X95.358 Y85.115 E0.04843
G1 X96.501 Y83.853 E0.05339
G1 X97.616 Y82.739 E0.04943
G1 X98.809 Y81.657 E0.05047
G1 X100.052 Y80.637 E0.05042
G1 X101.291 Y79.716 E0.04843
G1 X102.682 Y78.783 E0.05249
G1 X104.058 Y77.958 E0.05033
G1 X105.391 Y77.242 E0.04742
G1 X106.930 Y76.509 E0.05346
G1 X108.505 Y75.859 E0.05342
G1 X109.931 Y75.349 E0.04749
G1 X111.466 Y74.881 E0.05033
G1 X113.089 Y74.474 E0.05246
G1 X114.604 Y74.172 E0.04843
G1 X116.194 Y73.934 E0.05042
G1 X117.797 Y73.774 E0.05050
G1 X119.206 Y73.702 E0.04423
G1 X121.010 Y73.689 E0.05658
G1 X122.616 Y73.765 E0.05040
G1 X124.216 Y73.920 E0.05042
G1 X125.810 Y74.153 E0.05050
G1 X127.385 Y74.463 E0.05033
G1 X128.948 Y74.850 E0.05047
G1 X130.487 Y75.313 E0.05042
G1 X132.003 Y75.851 E0.05041
G1 X133.518 Y76.475 E0.05140
G1 X134.945 Y77.146 E0.04943
G1 X136.367 Y77.901 E0.05047
G1 X137.748 Y78.723 E0.05041
G1 X139.166 Y79.668 E0.05343
G1 X140.407 Y80.585 E0.04838
G1 X141.727 Y81.669 E0.05354
G1 X142.825 Y82.659 E0.04637
G1 X144.029 Y83.864 E0.05341
G1 X144.190 Y84.126 E0.00964
G1 X144.280 Y84.419 E0.00961
G1 X144.297 Y84.629 E0.00660
G1 X144.297 Y129.352 E1.40227
G1 X144.278 Y129.572 E0.00692
G1 X144.225 Y129.772 E0.00650
G1 X144.137 Y129.960 E0.00651
G1 X144.060 Y130.071 E0.00422
G1 X143.710 Y130.057 F10800.000
;WIPE_START
G1 F8640.000
G1 X143.789 Y130.340 E-0.08806
G1 X143.610 Y130.443 E-0.04786
G1 X143.420 Y130.512 E-0.04676
G1 X143.089 Y130.556 E-0.07689
G1 X140.922 Y130.556 E-0.50042
;WIPE_END
G1 E-0.04000 F2100.000
G1 Z0.600 F10800.000
G1 X143.800 Y84.559
G1 Z0.200
G1 E0.80000 F2100.000
;TYPE:Solid infill
;WIDTH:0.421417
G1 F1200.000
G1 X142.372 Y83.139 E0.06338
G1 X141.297 Y82.169 E0.04557
G1 X140.001 Y81.106 E0.05273
G1 X139.274 Y80.568 E0.02848
G1 X143.638 Y84.932 E0.19423
G1 X143.638 Y85.467 E0.01685
G1 X137.563 Y79.392 E0.27039
G1 X136.210 Y78.575 E0.04972
G1 X143.638 Y86.003 E0.33057
G1 X143.638 Y86.538 E0.01685
G1 X135.047 Y77.947 E0.38238
G1 X134.650 Y77.736 E0.01413
G1 X133.991 Y77.426 E0.02292
G1 X143.638 Y87.073 E0.42936
G1 X143.638 Y87.608 E0.01685
G1 X133.008 Y76.979 E0.47312
G1 X132.098 Y76.604 E0.03097
G1 X143.638 Y88.144 E0.51362
M73 P3 R41
G1 X143.638 Y88.679 E0.01685
G1 X131.239 Y76.280 E0.55185
M73 Q3 S41
G1 X130.409 Y75.986 E0.02771
G1 X143.638 Y89.214 E0.58879
G1 X143.638 Y89.750 E0.01685
G1 X129.634 Y75.746 E0.62330
G1 X128.868 Y75.515 E0.02516
G1 X143.638 Y90.285 E0.65737
G1 X143.638 Y90.820 E0.01685
G1 X128.150 Y75.332 E0.68935
G1 X127.438 Y75.156 E0.02308
G1 X143.638 Y91.355 E0.72103
G1 X143.638 Y91.891 E0.01685
G1 X126.759 Y75.012 E0.75124
G1 X126.093 Y74.881 E0.02137
G1 X143.638 Y92.426 E0.78090
G1 X143.638 Y92.961 E0.01685
G1 X142.527 Y91.851 E0.04941
G1 X141.712 Y90.670 E0.04516
G1 X141.413 Y90.737 E0.00963
G1 X125.442 Y74.766 E0.71082
G1 X124.815 Y74.674 E0.01994
G1 X140.975 Y90.833 E0.71922
G1 X140.536 Y90.930 E0.01413
G1 X124.188 Y74.583 E0.72761
G1 X123.593 Y74.523 E0.01883
G1 X140.098 Y91.027 E0.73460
G1 X139.660 Y91.124 E0.01413
G1 X123.001 Y74.465 E0.74145
G1 X122.417 Y74.417 E0.01845
G1 X139.221 Y91.221 E0.74794
G1 X138.783 Y91.318 E0.01413
G1 X121.855 Y74.390 E0.75344
G1 X121.293 Y74.363 E0.01770
G1 X138.344 Y91.415 E0.75893
M73 P3 R40
G1 X137.906 Y91.512 E0.01413
G1 X120.745 Y74.351 E0.76380
G1 X120.214 Y74.355 E0.01673
G1 X137.468 Y91.609 E0.76795
G1 X137.029 Y91.706 E0.01413
G1 X119.682 Y74.358 E0.77211
G1 X119.153 Y74.365 E0.01664
G1 X136.591 Y91.803 E0.77612
G1 X136.153 Y91.900 E0.01413
G1 X118.644 Y74.391 E0.77928
G1 X118.135 Y74.417 E0.01605
M73 P4 R40
G1 X135.714 Y91.996 E0.78243
M73 Q4 S41
G1 X135.276 Y92.093 E0.01413
G1 X117.636 Y74.453 E0.78515
G1 X117.149 Y74.502 E0.01539
G1 X134.838 Y92.190 E0.78729
G1 X134.399 Y92.287 E0.01413
G1 X116.662 Y74.550 E0.78944
G1 X116.180 Y74.603 E0.01527
G1 X133.961 Y92.384 E0.79140
G1 X133.523 Y92.481 E0.01413
G1 X115.715 Y74.673 E0.79260
G1 X115.249 Y74.743 E0.01481
G1 X133.084 Y92.578 E0.79381
G1 X132.646 Y92.675 E0.01413
G1 X114.783 Y74.813 E0.79502
G1 X114.334 Y74.899 E0.01439
G1 X132.207 Y92.772 E0.79550
G1 X131.769 Y92.869 E0.01413
G1 X113.888 Y74.988 E0.79585
G1 X113.442 Y75.077 E0.01432
G1 X131.331 Y92.966 E0.79620
G1 X130.892 Y93.063 E0.01413
G1 X113.005 Y75.176 E0.79612
G1 X112.577 Y75.283 E0.01389
G1 X130.454 Y93.159 E0.79566
M73 Q4 S40
G1 X130.016 Y93.256 E0.01413
G1 X112.149 Y75.390 E0.79520
G1 X111.721 Y75.497 E0.01389
G1 X129.577 Y93.353 E0.79474
G1 X129.139 Y93.450 E0.01413
G1 X111.308 Y75.619 E0.79364
G1 X110.897 Y75.744 E0.01350
G1 X128.701 Y93.547 E0.79239
G1 X128.262 Y93.644 E0.01413
G1 X110.487 Y75.869 E0.79114
G1 X110.079 Y75.996 E0.01345
G1 X127.824 Y93.741 E0.78978
G1 X127.386 Y93.838 E0.01413
G1 X109.685 Y76.137 E0.78782
M73 P5 R40
G1 X109.291 Y76.279 E0.01318
G1 X126.947 Y93.935 E0.78585
M73 Q5 S40
G1 X126.509 Y94.032 E0.01413
G1 X108.897 Y76.420 E0.78389
G1 X108.512 Y76.570 E0.01300
G1 X126.070 Y94.129 E0.78151
G1 X125.632 Y94.226 E0.01413
G1 X108.133 Y76.726 E0.77886
G1 X107.754 Y76.883 E0.01290
G1 X125.194 Y94.323 E0.77621
G1 X124.755 Y94.419 E0.01413
G1 X107.375 Y77.039 E0.77356
G1 X107.005 Y77.204 E0.01276
G1 X124.317 Y94.516 E0.77052
G1 X123.879 Y94.613 E0.01413
G1 X106.643 Y77.377 E0.76715
G1 X106.280 Y77.550 E0.01264
G1 X123.440 Y94.710 E0.76378
G1 X123.002 Y94.807 E0.01413
G1 X105.917 Y77.723 E0.76041
G1 X105.689 Y77.831 E0.00796
G1 X105.560 Y77.900 E0.00460
G1 X122.564 Y94.904 E0.75680
G1 X122.125 Y95.001 E0.01413
G1 X105.212 Y78.087 E0.75279
G1 X104.863 Y78.274 E0.01244
G1 X121.687 Y95.098 E0.74879
G1 X121.248 Y95.195 E0.01413
G1 X104.515 Y78.461 E0.74478
G1 X104.384 Y78.531 E0.00468
G1 X104.175 Y78.657 E0.00766
G1 X120.810 Y95.292 E0.74039
G1 X120.372 Y95.389 E0.01413
G1 X103.841 Y78.857 E0.73577
G1 X103.506 Y79.058 E0.01228
