; generated by PrusaSlicer 2.3.0+win64 on 2021-05-04 at 14:57:47 UTC

; 

; external perimeters extrusion width = 0.45mm
; perimeters extrusion width = 0.45mm
; infill extrusion width = 0.45mm
; solid infill extrusion width = 0.45mm
; top infill extrusion width = 0.40mm
; first layer extrusion width = 0.42mm

M73 P0 R71
M73 Q0 S71
M201 X1000 Y1000 Z200 E5000 ; sets maximum accelerations, mm/sec^2
M203 X200 Y200 Z12 E120 ; sets maximum feedrates, mm/sec
M204 P1250 R1250 T1250 ; sets acceleration (P, T) and retract acceleration (R), mm/sec^2
M205 X8.00 Y8.00 Z0.40 E4.50 ; sets the jerk limits, mm/sec
M205 S0 T0 ; sets the minimum extruding and travel feed rate, mm/sec
M107
;TYPE:Custom
M862.3 P "MK3S" ; printer model check
M862.1 P0.4 ; nozzle diameter check
M115 U3.9.3 ; tell printer latest fw version
G90 ; use absolute coordinates
M83 ; extruder relative mode
M104 S215 ; set extruder temp
M140 S60 ; set bed temp
M190 S60 ; wait for bed temp
M109 S215 ; wait for extruder temp
G28 W ; home all without mesh bed level
G80 ; mesh bed leveling
G1 Y-3.0 F1000.0 ; go outside print area
G92 E0.0
G1 X60.0 E9.0 F1000.0 ; intro line
G1 X100.0 E12.5 F1000.0 ; intro line
G92 E0.0
M221 S95

; Don't change E values below. Excessive value can damage the printer.
M907 E430 ; set extruder motor current
G21 ; set units to millimeters
G90 ; use absolute coordinates
M83 ; use relative distances for extrusion
M900 K0.05 ; Filament gcode LA 1.5
M900 K30 ; Filament gcode LA 1.0
;LAYER_CHANGE
;Z:0.2
;HEIGHT:0.2
;BEFORE_LAYER_CHANGE
G92 E0.0
;0.2


G1 E-0.80000 F2100.000
G1 Z0.400 F10800.000
;AFTER_LAYER_CHANGE
;0.2
G1 X63.101 Y48.978
G1 Z0.200
G1 E0.80000 F2100.000
M204 S1000
;TYPE:Skirt
;WIDTH:0.42
G1 F1200.000
G1 X65.460 Y46.083 E0.11712
G1 X68.194 Y43.029 E0.12850
G1 X71.104 Y40.084 E0.12982
G1 X73.388 Y38.009 E0.09675
G1 X76.034 Y35.882 E0.10644
G1 X78.685 Y34.013 E0.10170
G1 X81.419 Y32.336 E0.10060
G1 X84.505 Y30.693 E0.10958
G1 X86.686 Y29.688 E0.07532
G1 X88.913 Y28.788 E0.07532
G1 X91.368 Y27.925 E0.08158
G1 X93.719 Y27.220 E0.07696
G1 X96.017 Y26.651 E0.07422
G1 X98.356 Y26.186 E0.07477
G1 X100.875 Y25.798 E0.07992
G1 X103.386 Y25.537 E0.07916
G1 X107.152 Y25.383 E0.11818
G1 X152.257 Y25.376 E1.41423
G1 X155.953 Y25.512 E0.11598
G1 X159.894 Y25.938 E0.12426
G1 X163.514 Y26.604 E0.11543
G1 X167.219 Y27.565 E0.11999
G1 X170.676 Y28.725 E0.11433
G1 X174.040 Y30.132 E0.11433
G1 X177.462 Y31.845 E0.12000
G1 X180.727 Y33.798 E0.11928
G1 X183.875 Y36.006 E0.12056
G1 X186.731 Y38.329 E0.11543
G1 X189.624 Y41.069 E0.12493
G1 X192.102 Y43.768 E0.11488
G1 X194.398 Y46.668 E0.11598
G1 X196.623 Y49.932 E0.12384
G1 X198.476 Y53.133 E0.11598
G1 X200.126 Y56.528 E0.11836
G1 X201.097 Y58.859 E0.07916
G1 X201.956 Y61.251 E0.07971
G1 X202.675 Y63.617 E0.07751
G1 X203.352 Y66.290 E0.08647
G1 X203.839 Y68.714 E0.07751
G1 X204.207 Y71.176 E0.07806
G1 X204.476 Y73.886 E0.08538
G1 X204.605 Y76.337 E0.07696
G1 X204.591 Y124.326 E1.50465
G1 X204.348 Y127.831 E0.11016
G1 X203.920 Y131.064 E0.10224
G1 X203.280 Y134.279 E0.10279
G1 X202.392 Y137.624 E0.10850
G1 X201.392 Y140.617 E0.09895
G1 X200.214 Y143.526 E0.09840
G1 X198.782 Y146.539 E0.10461
G1 X197.187 Y149.403 E0.10279
G1 X195.329 Y152.281 E0.10742
G1 X193.483 Y154.798 E0.09785
G1 X191.462 Y157.221 E0.09895
G1 X189.179 Y159.641 E0.10428
G1 X186.769 Y161.994 E0.10563
G1 X183.698 Y164.726 E0.12886
G1 X180.817 Y167.057 E0.11622
G1 X177.312 Y169.628 E0.13630
G1 X174.011 Y171.805 E0.12396
G1 X170.526 Y173.873 E0.12708
G1 X166.929 Y175.779 E0.12762
G1 X163.729 Y177.292 E0.11099
G1 X159.576 Y179.018 E0.14101
G1 X156.315 Y180.194 E0.10868
G1 X153.266 Y181.162 E0.10033
G1 X149.918 Y182.081 E0.10885
G1 X146.575 Y182.850 E0.10755
G1 X142.635 Y183.576 E0.12562
G1 X138.758 Y184.102 E0.12266
G1 X135.076 Y184.432 E0.11592
G1 X130.800 Y184.612 E0.13420
G1 X127.275 Y184.595 E0.11051
G1 X123.627 Y184.423 E0.11451
G1 X120.558 Y184.156 E0.09658
G1 X117.272 Y183.743 E0.10386
G1 X113.280 Y183.063 E0.12696
G1 X109.481 Y182.229 E0.12195
G1 X105.621 Y181.188 E0.12535
G1 X101.634 Y179.903 E0.13135
G1 X97.797 Y178.454 E0.12858
G1 X93.881 Y176.747 E0.13395
G1 X90.142 Y174.888 E0.13093
G1 X86.480 Y172.834 E0.13164
G1 X82.955 Y170.620 E0.13052
G1 X79.688 Y168.339 E0.12494
G1 X76.277 Y165.699 E0.13524
G1 X73.103 Y162.975 E0.13114
G1 X70.038 Y160.065 E0.13252
G1 X67.145 Y157.029 E0.13149
G1 X64.460 Y153.917 E0.12885
G1 X61.893 Y150.627 E0.13085
G1 X59.581 Y147.346 E0.12587
G1 X57.284 Y143.719 E0.13458
G1 X55.298 Y140.207 E0.12651
G1 X53.345 Y136.314 E0.13656
G1 X51.677 Y132.522 E0.12990
G1 X50.255 Y128.812 E0.12458
G1 X48.925 Y124.761 E0.13368
G1 X47.820 Y120.717 E0.13144
G1 X46.921 Y116.638 E0.13095
G1 X46.226 Y112.520 E0.13095
G1 X45.776 Y108.779 E0.11816
G1 X45.458 Y104.295 E0.14093
G1 X45.376 Y100.301 E0.12526
G1 X45.508 Y95.885 E0.13853
G1 X45.824 Y91.935 E0.12423
G1 X46.399 Y87.526 E0.13940
G1 X47.122 Y83.556 E0.12653
G1 X48.008 Y79.732 E0.12308
G1 X49.085 Y75.918 E0.12427
G1 X50.413 Y71.945 E0.13135
G1 X51.714 Y68.586 E0.11294
G1 X53.188 Y65.227 E0.11500
G1 X54.895 Y61.758 E0.12124
G1 X56.573 Y58.691 E0.10961
G1 X58.460 Y55.570 E0.11436
G1 X60.579 Y52.391 E0.11978
G1 X63.065 Y49.027 E0.13116
; printing object body88374 id:0 copy 0
;WIPE_START
G1 F8640.000
G1 X65.142 Y46.474 E-0.76000
;WIPE_END
G1 E-0.04000 F2100.000
G1 Z0.600 F10800.000
G1 X142.797 Y122.021
G1 Z0.200
G1 E0.80000 F2100.000
;TYPE:External perimeter
G1 F1200.000
G1 X143.006 Y121.794 E0.00967
G1 X143.233 Y121.585 E0.00967
G1 X143.478 Y121.398 E0.00967
G1 X143.738 Y121.232 E0.00967
G1 X144.011 Y121.090 E0.00967
G1 X144.296 Y120.972 E0.00967
G1 X144.591 Y120.879 E0.00967
G1 X144.896 Y120.811 E0.00980
G1 X145.436 Y120.761 E0.01700
G1 X145.812 Y120.772 E0.01181
G1 X146.119 Y120.812 E0.00972
G1 X146.421 Y120.879 E0.00967
G1 X146.715 Y120.972 E0.00967
G1 X147.000 Y121.090 E0.00967
G1 X147.273 Y121.232 E0.00967
G1 X147.533 Y121.398 E0.00967
G1 X147.778 Y121.585 E0.00967
G1 X148.005 Y121.794 E0.00967
G1 X148.214 Y122.021 E0.00967
G1 X148.402 Y122.266 E0.00967
G1 X148.567 Y122.526 E0.00967
G1 X148.710 Y122.800 E0.00967
G1 X148.828 Y123.085 E0.00967
G1 X148.920 Y123.379 E0.00967
G1 X148.987 Y123.680 E0.00967
G1 X149.028 Y123.986 E0.00967
G1 X149.041 Y124.294 E0.00967
G1 X149.028 Y124.602 E0.00967
G1 X148.987 Y124.908 E0.00967
G1 X148.920 Y125.213 E0.00980
G1 X148.737 Y125.723 E0.01700
G1 X148.568 Y126.060 E0.01181
G1 X148.402 Y126.322 E0.00972
G1 X148.214 Y126.566 E0.00967
G1 X148.003 Y126.797 E0.00980
G1 X147.589 Y127.147 E0.01700
G1 X147.275 Y127.355 E0.01181
G1 X147.000 Y127.498 E0.00972
G1 X146.715 Y127.616 E0.00967
G1 X146.421 Y127.709 E0.00967
G1 X146.119 Y127.775 E0.00967
G1 X145.814 Y127.816 E0.00967
G1 X145.506 Y127.829 E0.00967
G1 X145.197 Y127.816 E0.00967
G1 X144.892 Y127.775 E0.00967
G1 X144.591 Y127.709 E0.00967
G1 X144.296 Y127.616 E0.00967
G1 X144.011 Y127.498 E0.00967
G1 X143.738 Y127.355 E0.00967
G1 X143.478 Y127.190 E0.00967
G1 X143.233 Y127.002 E0.00967
G1 X143.006 Y126.794 E0.00967
G1 X142.797 Y126.566 E0.00967
G1 X142.610 Y126.322 E0.00967
G1 X142.444 Y126.061 E0.00967
G1 X142.301 Y125.788 E0.00967
G1 X142.182 Y125.499 E0.00980
G1 X142.039 Y124.976 E0.01700
G1 X141.984 Y124.604 E0.01181
G1 X141.970 Y124.294 E0.00972
G1 X141.984 Y123.986 E0.00967
G1 X142.024 Y123.680 E0.00967
G1 X142.091 Y123.379 E0.00967
G1 X142.183 Y123.085 E0.00967
G1 X142.301 Y122.800 E0.00967
G1 X142.444 Y122.526 E0.00967
G1 X142.761 Y122.069 E0.01744
G1 X142.688 Y121.733 F10800.000
;WIPE_START
G1 F8640.000
G1 X143.006 Y121.794 E-0.08503
G1 X143.233 Y121.585 E-0.07122
G1 X143.478 Y121.398 E-0.07122
G1 X143.738 Y121.232 E-0.07122
G1 X144.011 Y121.090 E-0.07121
G1 X144.296 Y120.972 E-0.07121
G1 X144.591 Y120.879 E-0.07122
G1 X144.896 Y120.811 E-0.07215
G1 X145.436 Y120.761 E-0.12522
G1 X145.653 Y120.767 E-0.05031
;WIPE_END
G1 E-0.04000 F2100.000
G1 Z0.600 F10800.000
G1 X123.534 Y95.548
G1 Z0.200
G1 E0.80000 F2100.000
;TYPE:Perimeter
G1 F1200.000
G1 X122.272 Y95.528 E0.03956
G1 X121.757 Y95.463 E0.01628
G1 X121.075 Y95.255 E0.02236
G1 X120.218 Y95.463 E0.02766
G1 X119.577 Y95.463 E0.02009
G1 X118.747 Y95.261 E0.02677
G1 X117.918 Y95.463 E0.02677
G1 X117.277 Y95.463 E0.02009
G1 X116.420 Y95.255 E0.02766
G1 X115.738 Y95.463 E0.02236
G1 X115.223 Y95.528 E0.01628
G1 X113.961 Y95.548 E0.03956
G1 X113.962 Y87.457 E0.25371
G1 X115.223 Y87.477 E0.03954
G1 X115.738 Y87.542 E0.01628
G1 X116.420 Y87.751 E0.02236
G1 X117.277 Y87.542 E0.02766
G1 X117.918 Y87.542 E0.02009
G1 X118.747 Y87.744 E0.02677
G1 X119.577 Y87.542 E0.02677
G1 X120.218 Y87.542 E0.02009
G1 X121.075 Y87.751 E0.02766
G1 X121.757 Y87.542 E0.02236
G1 X122.272 Y87.477 E0.01628
G1 X123.534 Y87.457 E0.03956
G1 X123.534 Y95.488 E0.25183
G1 X123.157 Y95.165 F10800.000
;TYPE:External perimeter
G1 F1200.000
G1 X122.299 Y95.152 E0.02689
G1 X121.836 Y95.093 E0.01462
G1 X121.236 Y94.910 E0.01969
G1 X121.236 Y88.096 E0.21364
G1 X121.836 Y87.912 E0.01969
G1 X122.299 Y87.854 E0.01462
G1 X123.157 Y87.840 E0.02689
G1 X123.157 Y95.105 E0.22780
G1 X123.168 Y95.565 F10800.000
;WIPE_START
G1 F8640.000
G1 X122.299 Y95.152 E-0.19832
G1 X121.836 Y95.093 E-0.10767
G1 X121.236 Y94.910 E-0.14499
G1 X121.236 Y93.571 E-0.30902
;WIPE_END
G1 E-0.04000 F2100.000
G1 Z0.600 F10800.000
G1 X120.859 Y94.919
G1 Z0.200
G1 E0.80000 F2100.000
G1 F1200.000
G1 X120.172 Y95.086 E0.02215
G1 X119.622 Y95.086 E0.01726
G1 X118.936 Y94.919 E0.02215
G1 X118.936 Y88.086 E0.21425
M73 P0 R70
G1 X119.622 Y87.919 E0.02215
G1 X120.172 Y87.919 E0.01726
G1 X120.859 Y88.086 E0.02215
G1 X120.859 Y94.859 E0.21236
G1 X120.935 Y95.312 F10800.000
;WIPE_START
G1 F8640.000
G1 X120.172 Y95.086 E-0.16690
G1 X119.622 Y95.086 E-0.12707
G1 X118.936 Y94.919 E-0.16308
G1 X118.936 Y93.607 E-0.30294
;WIPE_END
G1 E-0.04000 F2100.000
G1 Z0.600 F10800.000
G1 X118.559 Y94.859
G1 Z0.200
G1 E0.80000 F2100.000
G1 F1200.000
G1 X118.559 Y94.919 E0.00188
G1 X117.872 Y95.086 E0.02215
G1 X117.322 Y95.086 E0.01726
G1 X116.636 Y94.919 E0.02215
G1 X116.636 Y88.086 E0.21425
G1 X117.322 Y87.919 E0.02215
G1 X117.872 Y87.919 E0.01726
G1 X118.559 Y88.086 E0.02215
G1 X118.559 Y94.799 E0.21048
G1 X118.612 Y94.887 F10800.000
;WIPE_START
G1 F8640.000
G1 X118.559 Y94.919 E-0.02771
G1 X117.872 Y95.086 E-0.16308
G1 X117.322 Y95.086 E-0.12707
G1 X116.636 Y94.919 E-0.16309
G1 X116.636 Y93.711 E-0.27905
;WIPE_END
G1 E-0.04000 F2100.000
G1 Z0.600 F10800.000
G1 X116.259 Y94.799
G1 Z0.200
G1 E0.80000 F2100.000
G1 F1200.000
G1 X116.259 Y94.910 E0.00346
G1 X115.658 Y95.093 E0.01969
G1 X115.196 Y95.152 E0.01462
G1 X114.338 Y95.165 E0.02689
G1 X114.338 Y87.840 E0.22968
G1 X115.196 Y87.854 E0.02689
G1 X115.658 Y87.912 E0.01462
G1 X116.259 Y88.096 E0.01969
G1 X116.259 Y94.739 E0.20830
G1 X116.356 Y94.852 F10800.000
;WIPE_START
G1 F8640.000
G1 X116.259 Y94.910 E-0.03935
G1 X115.658 Y95.093 E-0.14498
G1 X115.196 Y95.152 E-0.10767
G1 X114.338 Y95.165 E-0.19805
M73 Q1 S71
G1 X114.338 Y93.996 E-0.26994
;WIPE_END
G1 E-0.04000 F2100.000
G1 Z0.600 F10800.000
M73 P1 R70
G1 X107.972 Y89.451
G1 Z0.200
G1 E0.80000 F2100.000
;TYPE:Perimeter
G1 F1200.000
G1 X107.846 Y89.797 E0.01155
G1 X107.668 Y90.105 E0.01115
G1 X107.439 Y90.377 E0.01115
G1 X107.167 Y90.606 E0.01115
G1 X106.859 Y90.783 E0.01115
G1 X106.513 Y90.909 E0.01155
G1 X105.997 Y90.977 E0.01631
G1 X105.482 Y90.909 E0.01631
G1 X105.135 Y90.783 E0.01155
G1 X104.828 Y90.606 E0.01115
G1 X104.555 Y90.377 E0.01115
G1 X104.318 Y90.095 E0.01155
G1 X104.084 Y89.645 E0.01590
G1 X103.989 Y89.289 E0.01155
G1 X103.958 Y88.935 E0.01115
G1 X103.989 Y88.581 E0.01115
G1 X104.084 Y88.225 E0.01155
G1 X104.318 Y87.775 E0.01590
G1 X104.555 Y87.493 E0.01155
G1 X104.828 Y87.264 E0.01115
G1 X105.135 Y87.086 E0.01115
G1 X105.481 Y86.961 E0.01152
G1 X105.965 Y86.895 E0.01533
G1 X106.349 Y86.926 E0.01209
G1 X106.706 Y87.021 E0.01159
G1 X107.141 Y87.245 E0.01533
G1 X107.438 Y87.491 E0.01209
G1 X107.676 Y87.775 E0.01162
G1 X107.910 Y88.225 E0.01590
G1 X108.006 Y88.581 E0.01155
G1 X108.038 Y88.948 E0.01155
G1 X107.980 Y89.391 E0.01402
G1 X107.606 Y89.342 F10800.000
;TYPE:External perimeter
G1 F1200.000
G1 X107.503 Y89.637 E0.00980
G1 X107.358 Y89.888 E0.00908
G1 X107.172 Y90.109 E0.00908
G1 X106.950 Y90.295 E0.00908
G1 X106.699 Y90.440 E0.00908
G1 X106.423 Y90.541 E0.00922
G1 X105.997 Y90.597 E0.01346
G1 X105.572 Y90.541 E0.01346
G1 X105.295 Y90.440 E0.00922
G1 X105.045 Y90.295 E0.00908
G1 X104.823 Y90.109 E0.00908
G1 X104.634 Y89.884 E0.00922
G1 X104.438 Y89.507 E0.01331
G1 X104.362 Y89.223 E0.00922
G1 X104.336 Y88.935 E0.00908
G1 X104.362 Y88.646 E0.00908
G1 X104.438 Y88.362 E0.00922
G1 X104.634 Y87.986 E0.01331
G1 X104.823 Y87.760 E0.00922
G1 X105.045 Y87.574 E0.00908
G1 X105.295 Y87.429 E0.00908
G1 X105.571 Y87.329 E0.00921
G1 X105.976 Y87.274 E0.01279
G1 X106.285 Y87.299 E0.00973
G1 X106.569 Y87.375 E0.00924
G1 X106.932 Y87.562 E0.01279
G1 X107.171 Y87.760 E0.00973
G1 X107.361 Y87.986 E0.00925
G1 X107.557 Y88.362 E0.01331
G1 X107.633 Y88.646 E0.00922
G1 X107.659 Y88.939 E0.00922
G1 X107.614 Y89.282 E0.01084
G1 X107.832 Y89.557 F10800.000
;WIPE_START
G1 F8640.000
G1 X107.503 Y89.637 E-0.08575
G1 X107.358 Y89.888 E-0.06685
G1 X107.172 Y90.109 E-0.06685
G1 X106.950 Y90.295 E-0.06685
G1 X106.699 Y90.440 E-0.06685
G1 X106.423 Y90.541 E-0.06792
G1 X105.997 Y90.597 E-0.09911
G1 X105.572 Y90.541 E-0.09911
G1 X105.295 Y90.440 E-0.06792
G1 X105.045 Y90.295 E-0.06685
G1 X105.025 Y90.279 E-0.00592
;WIPE_END
G1 E-0.04000 F2100.000
G1 Z0.600 F10800.000
G1 X96.964 Y99.626
G1 Z0.200
G1 E0.80000 F2100.000
;TYPE:Perimeter
G1 F1200.000
G1 X96.999 Y98.642 E0.03085
G1 X97.136 Y97.036 E0.05056
G1 X97.353 Y95.434 E0.05067
G1 X97.650 Y93.846 E0.05067
G1 X98.024 Y92.277 E0.05056
G1 X98.478 Y90.725 E0.05071
G1 X99.006 Y89.202 E0.05053
G1 X99.610 Y87.703 E0.05067
G1 X100.287 Y86.240 E0.05056
G1 X101.038 Y84.809 E0.05067
G1 X101.860 Y83.416 E0.05070
G1 X102.746 Y82.070 E0.05053
G1 X103.702 Y80.765 E0.05071
G1 X104.718 Y79.514 E0.05053
G1 X105.798 Y78.312 E0.05067
G1 X106.921 Y77.180 E0.04999
G1 X107.163 Y77.014 E0.00922
G1 X107.281 Y76.973 E0.00391
G1 X107.539 Y76.940 E0.00815
G1 X148.366 Y76.944 E1.28011
G1 X147.909 Y77.076 E0.01491
G1 X147.594 Y77.206 E0.01070
G1 X147.291 Y77.364 E0.01070
G1 X147.003 Y77.547 E0.01070
G1 X146.732 Y77.755 E0.01070
G1 X146.481 Y77.986 E0.01070
G1 X146.250 Y78.238 E0.01070
G1 X146.042 Y78.508 E0.01070
G1 X145.859 Y78.796 E0.01070
G1 X145.701 Y79.099 E0.01070
G1 X145.570 Y79.414 E0.01070
G1 X145.468 Y79.740 E0.01070
G1 X145.394 Y80.073 E0.01070
G1 X145.349 Y80.412 E0.01070
G1 X145.335 Y80.753 E0.01070
G1 X145.349 Y81.094 E0.01070
G1 X145.394 Y81.432 E0.01070
G1 X145.468 Y81.765 E0.01070
G1 X145.570 Y82.091 E0.01070
G1 X145.703 Y82.411 E0.01085
G1 X145.902 Y82.779 E0.01313
G1 X146.242 Y83.259 E0.01846
G1 X146.481 Y83.519 E0.01106
G1 X146.732 Y83.750 E0.01070
G1 X147.003 Y83.958 E0.01070
G1 X147.291 Y84.141 E0.01070
G1 X147.594 Y84.299 E0.01070
G1 X147.909 Y84.430 E0.01070
G1 X148.235 Y84.532 E0.01070
G1 X148.568 Y84.606 E0.01070
G1 X148.906 Y84.651 E0.01070
G1 X149.247 Y84.666 E0.01070
G1 X149.588 Y84.651 E0.01070
G1 X149.927 Y84.606 E0.01070
G1 X150.260 Y84.532 E0.01070
G1 X150.586 Y84.430 E0.01070
G1 X150.901 Y84.299 E0.01070
G1 X151.204 Y84.141 E0.01070
G1 X151.492 Y83.958 E0.01070
G1 X151.762 Y83.750 E0.01070
G1 X152.014 Y83.519 E0.01070
G1 X152.245 Y83.268 E0.01070
G1 X152.453 Y82.997 E0.01070
G1 X152.636 Y82.709 E0.01070
G1 X152.794 Y82.406 E0.01070
G1 X152.924 Y82.091 E0.01070
G1 X153.060 Y81.615 E0.01553
G1 X153.060 Y122.474 E1.28111
G1 X153.015 Y122.761 E0.00911
G1 X152.911 Y122.966 E0.00723
G1 X152.820 Y123.079 E0.00455
G1 X151.688 Y124.202 E0.04999
G1 X150.485 Y125.283 E0.05070
G1 X149.234 Y126.299 E0.05053
G1 X148.433 Y126.885 E0.03113
G1 X148.711 Y126.538 E0.01395
G1 X148.897 Y126.246 E0.01085
G1 X149.084 Y125.872 E0.01313
G1 X149.283 Y125.317 E0.01846
G1 X149.359 Y124.973 E0.01106
G1 X149.404 Y124.635 E0.01070
G1 X149.418 Y124.294 E0.01070
G1 X149.404 Y123.953 E0.01070
G1 X149.359 Y123.614 E0.01070
G1 X149.285 Y123.281 E0.01070
G1 X149.182 Y122.955 E0.01070
