; generated by PrusaSlicer 2.3.0+win64 on 2021-05-20 at 14:52:36 UTC

; 

; external perimeters extrusion width = 0.45mm
; perimeters extrusion width = 0.45mm
; infill extrusion width = 0.45mm
; solid infill extrusion width = 0.45mm
; top infill extrusion width = 0.40mm
; first layer extrusion width = 0.42mm

M73 P0 R42
M73 Q0 S42
M201 X1000 Y1000 Z200 E5000 ; sets maximum accelerations, mm/sec^2
M203 X200 Y200 Z12 E120 ; sets maximum feedrates, mm/sec
M204 P1250 R1250 T1250 ; sets acceleration (P, T) and retract acceleration (R), mm/sec^2
M205 X8.00 Y8.00 Z0.40 E4.50 ; sets the jerk limits, mm/sec
M205 S0 T0 ; sets the minimum extruding and travel feed rate, mm/sec
M107
;TYPE:Custom
M862.3 P "MK3S" ; printer model check
M862.1 P0.4 ; nozzle diameter check
M115 U3.9.3 ; tell printer latest fw version
G90 ; use absolute coordinates
M83 ; extruder relative mode
M104 S215 ; set extruder temp
M140 S60 ; set bed temp
M190 S60 ; wait for bed temp
M109 S215 ; wait for extruder temp
G28 W ; home all without mesh bed level
G80 ; mesh bed leveling
G1 Y-3.0 F1000.0 ; go outside print area
G92 E0.0
G1 X60.0 E9.0 F1000.0 ; intro line
G1 X100.0 E12.5 F1000.0 ; intro line
G92 E0.0
M221 S95

; Don't change E values below. Excessive value can damage the printer.
M907 E430 ; set extruder motor current
G21 ; set units to millimeters
G90 ; use absolute coordinates
M83 ; use relative distances for extrusion
M900 K0.05 ; Filament gcode LA 1.5
M900 K30 ; Filament gcode LA 1.0
;LAYER_CHANGE
;Z:0.2
;HEIGHT:0.2
;BEFORE_LAYER_CHANGE
G92 E0.0
;0.2


G1 E-0.80000 F2100.000
G1 Z0.400 F10800.000
;AFTER_LAYER_CHANGE
;0.2
G1 X81.212 Y66.872
G1 Z0.200
G1 E0.80000 F2100.000
M204 S1000
;TYPE:Skirt
;WIDTH:0.42
G1 F1200.000
G1 X81.642 Y66.350 E0.02121
G1 X84.170 Y63.590 E0.11737
G1 X87.161 Y60.678 E0.13088
G1 X90.177 Y58.072 E0.12499
G1 X93.406 Y55.588 E0.12773
G1 X96.708 Y53.347 E0.12513
G1 X99.754 Y51.515 E0.11144
G1 X103.511 Y49.534 E0.13317
G1 X107.133 Y47.897 E0.12462
G1 X110.369 Y46.635 E0.10891
G1 X114.677 Y45.235 E0.14203
G1 X118.492 Y44.251 E0.12354
G1 X122.141 Y43.524 E0.11665
G1 X126.254 Y42.947 E0.13022
G1 X130.048 Y42.639 E0.11935
G1 X134.079 Y42.533 E0.12644
G1 X138.749 Y42.708 E0.14653
G1 X143.390 Y43.201 E0.14632
G1 X148.342 Y44.079 E0.15769
G1 X153.016 Y45.259 E0.15114
G1 X157.687 Y46.795 E0.15418
G1 X161.955 Y48.533 E0.14447
G1 X164.351 Y49.658 E0.08301
G1 X166.648 Y50.847 E0.08108
G1 X170.966 Y53.389 E0.15713
G1 X174.610 Y55.887 E0.13850
G1 X176.418 Y57.256 E0.07113
G1 X178.793 Y59.207 E0.09638
G1 X181.152 Y61.328 E0.09945
G1 X183.237 Y63.382 E0.09178
G1 X184.583 Y64.820 E0.06173
G1 X185.873 Y66.359 E0.06298
G1 X187.072 Y67.939 E0.06219
G1 X188.181 Y69.584 E0.06219
G1 X189.160 Y71.224 E0.05989
G1 X190.208 Y73.196 E0.07004
G1 X191.011 Y74.946 E0.06035
G1 X191.718 Y76.736 E0.06035
G1 X192.396 Y78.740 E0.06635
G1 X192.937 Y80.694 E0.06357
G1 X193.388 Y82.786 E0.06710
G1 X193.701 Y84.745 E0.06219
G1 X193.926 Y86.982 E0.07050
G1 X194.020 Y88.949 E0.06173
G1 X194.025 Y134.711 E1.43485
G1 X193.910 Y137.279 E0.08061
G1 X193.581 Y140.152 E0.09067
G1 X193.093 Y142.692 E0.08107
G1 X192.382 Y145.359 E0.08656
G1 X191.594 Y147.667 E0.07647
G1 X190.619 Y149.989 E0.07896
G1 X189.572 Y152.094 E0.07370
G1 X188.321 Y154.246 E0.07806
G1 X186.987 Y156.235 E0.07508
G1 X185.484 Y158.182 E0.07713
G1 X183.962 Y159.915 E0.07232
G1 X182.245 Y161.636 E0.07621
G1 X180.518 Y163.166 E0.07232
G1 X178.696 Y164.580 E0.07232
G1 X176.621 Y165.995 E0.07874
G1 X174.558 Y167.210 E0.07508
G1 X172.400 Y168.297 E0.07576
G1 X170.279 Y169.203 E0.07232
G1 X167.905 Y170.043 E0.07896
G1 X165.614 Y170.688 E0.07462
G1 X163.525 Y171.140 E0.06701
G1 X161.566 Y171.453 E0.06219
G1 X159.323 Y171.678 E0.07068
G1 X157.342 Y171.773 E0.06219
G1 X110.886 Y171.765 E1.45660
G1 X107.289 Y171.492 E0.11311
G1 X103.944 Y170.921 E0.10639
G1 X100.426 Y169.974 E0.11423
G1 X97.117 Y168.729 E0.11084
G1 X94.610 Y167.537 E0.08706
G1 X92.046 Y166.069 E0.09263
G1 X89.797 Y164.543 E0.08521
G1 X87.561 Y162.765 E0.08956
G1 X85.698 Y161.058 E0.07923
G1 X82.914 Y158.191 E0.12531
G1 X81.000 Y156.011 E0.09096
G1 X78.507 Y152.867 E0.12581
G1 X76.806 Y150.491 E0.09163
G1 X75.114 Y147.888 E0.09734
G1 X73.496 Y145.135 E0.10013
G1 X71.760 Y141.803 E0.11781
G1 X70.210 Y138.390 E0.11752
G1 X69.032 Y135.414 E0.10037
G1 X68.026 Y132.477 E0.09734
G1 X66.873 Y128.426 E0.13204
G1 X65.932 Y124.115 E0.13835
M73 P1 R42
M73 Q1 S42
G1 X65.405 Y120.833 E0.10423
G1 X64.972 Y116.726 E0.12950
M73 P1 R41
G1 X64.793 Y112.978 E0.11762
G1 X64.814 Y109.353 E0.11368
G1 X65.092 Y105.012 E0.13640
G1 X65.561 Y101.215 E0.11993
G1 X66.299 Y97.150 E0.12956
G1 X67.244 Y93.272 E0.12515
G1 X68.288 Y89.829 E0.11281
G1 X69.694 Y85.977 E0.12855
G1 X71.351 Y82.171 E0.13016
G1 X72.894 Y79.091 E0.10800
G1 X75.160 Y75.152 E0.14249
G1 X77.290 Y71.925 E0.12122
G1 X79.425 Y69.042 E0.11251
G1 X81.174 Y66.919 E0.08623
; printing object body4005453 id:0 copy 0
;WIPE_START
G1 F8640.000
G1 X81.642 Y66.350 E-0.17003
G1 X83.368 Y64.466 E-0.58997
;WIPE_END
G1 E-0.04000 F2100.000
G1 Z0.600 F10800.000
G1 X109.452 Y92.329
G1 Z0.200
G1 E0.80000 F2100.000
;TYPE:Perimeter
G1 F1200.000
G1 X110.271 Y91.640 E0.03358
G1 X114.263 Y93.798 E0.14228
G1 X113.926 Y88.021 E0.18144
G1 X114.914 Y87.576 E0.03398
G1 X129.180 Y101.762 E0.63080
G1 X155.130 Y96.024 E0.83330
G1 X155.732 Y96.889 E0.03304
G1 X147.603 Y109.531 E0.47125
G1 X144.751 Y108.756 E0.09268
G1 X135.440 Y123.235 E0.53976
G1 X128.241 Y125.559 E0.23720
G1 X128.241 Y134.070 E0.26685
G1 X127.266 Y134.471 E0.03305
G1 X119.662 Y126.806 E0.33855
G1 X121.497 Y115.604 E0.35591
G1 X116.137 Y112.297 E0.19746
G1 X109.471 Y92.386 E0.65837
G1 X109.891 Y92.452 F10800.000
;TYPE:External perimeter
G1 F1200.000
G1 X110.318 Y92.093 E0.01749
G1 X114.679 Y94.452 E0.15545
G1 X114.318 Y88.258 E0.19452
G1 X114.832 Y88.026 E0.01770
G1 X129.060 Y102.174 E0.62912
G1 X154.965 Y96.447 E0.83184
G1 X155.279 Y96.898 E0.01721
G1 X147.436 Y109.095 E0.45467
G1 X144.583 Y108.319 E0.09268
G1 X135.196 Y122.918 E0.54420
G1 X127.864 Y125.285 E0.24158
G1 X127.864 Y133.817 E0.26754
G1 X127.356 Y134.026 E0.01722
G1 X120.065 Y126.677 E0.32460
G1 X121.910 Y115.416 E0.35780
G1 X116.451 Y112.048 E0.20110
G1 X109.910 Y92.509 E0.64604
G1 X109.656 Y92.129 F10800.000
;WIPE_START
G1 F8640.000
G1 X110.318 Y92.093 E-0.13451
G1 X112.701 Y93.382 E-0.62549
;WIPE_END
G1 E-0.04000 F2100.000
G1 Z0.600 F10800.000
G1 X156.992 Y135.137
G1 Z0.200
G1 E0.80000 F2100.000
;TYPE:Perimeter
G1 F1200.000
G1 X156.872 Y135.181 E0.00401
G1 X156.607 Y135.215 E0.00837
G1 X111.929 Y135.215 E1.40086
M73 Q1 S41
G1 X111.775 Y135.203 E0.00484
G1 X111.555 Y135.135 E0.00722
G1 X111.446 Y135.074 E0.00391
G1 X111.323 Y134.975 E0.00495
G1 X110.217 Y133.861 E0.04920
G1 X109.152 Y132.678 E0.04993
G1 X108.168 Y131.472 E0.04881
G1 X107.170 Y130.115 E0.05280
G1 X106.327 Y128.843 E0.04786
G1 X105.545 Y127.532 E0.04786
G1 X104.754 Y126.045 E0.05280
G1 X104.092 Y124.635 E0.04885
G1 X103.487 Y123.163 E0.04989
G1 X102.956 Y121.665 E0.04984
G1 X102.515 Y120.203 E0.04786
G1 X102.115 Y118.597 E0.05191
G1 X101.808 Y117.040 E0.04975
G1 X101.591 Y115.562 E0.04686
G1 X101.426 Y113.884 E0.05286
G1 X101.349 Y112.201 E0.05283
G1 X101.353 Y110.704 E0.04692
G1 X101.434 Y109.120 E0.04975
G1 X101.600 Y107.474 E0.05187
G1 X101.828 Y105.964 E0.04786
G1 X102.140 Y104.406 E0.04984
G1 X102.529 Y102.862 E0.04993
G1 X102.982 Y101.372 E0.04881
G1 X103.552 Y99.788 E0.05280
G1 X104.138 Y98.378 E0.04786
G1 X104.791 Y96.998 E0.04786
M73 P2 R41
G1 X105.584 Y95.513 E0.05280
M73 Q2 S41
G1 X106.387 Y94.178 E0.04885
G1 X107.271 Y92.855 E0.04989
G1 X108.219 Y91.579 E0.04984
G1 X109.186 Y90.398 E0.04785
G1 X110.316 Y89.150 E0.05280
G1 X111.418 Y88.049 E0.04885
G1 X112.597 Y86.980 E0.04989
G1 X113.826 Y85.971 E0.04984
G1 X115.051 Y85.061 E0.04786
G1 X116.426 Y84.139 E0.05191
G1 X117.786 Y83.322 E0.04975
G1 X119.103 Y82.616 E0.04686
G1 X120.625 Y81.891 E0.05286
G1 X122.183 Y81.248 E0.05283
G1 X123.592 Y80.744 E0.04692
G1 X125.109 Y80.281 E0.04975
G1 X126.714 Y79.879 E0.05187
G1 X128.211 Y79.581 E0.04786
G1 X129.783 Y79.345 E0.04984
G1 X131.368 Y79.187 E0.04993
G1 X132.759 Y79.115 E0.04368
G1 X134.545 Y79.104 E0.05600
G1 X136.131 Y79.179 E0.04979
G1 X137.713 Y79.331 E0.04984
G1 X139.289 Y79.562 E0.04992
G1 X140.845 Y79.868 E0.04975
G1 X142.390 Y80.251 E0.04989
G1 X143.912 Y80.709 E0.04984
G1 X145.410 Y81.240 E0.04983
G1 X146.908 Y81.857 E0.05082
G1 X148.319 Y82.520 E0.04886
G1 X149.724 Y83.266 E0.04989
G1 X151.089 Y84.079 E0.04982
G1 X152.492 Y85.014 E0.05284
G1 X153.717 Y85.920 E0.04779
G1 X155.023 Y86.991 E0.05297
G1 X156.108 Y87.970 E0.04581
G1 X157.125 Y88.978 E0.04487
G1 X157.270 Y89.132 E0.00665
G1 X157.386 Y89.320 E0.00691
G1 X157.450 Y89.528 E0.00683
G1 X157.463 Y89.682 E0.00484
G1 X157.463 Y134.373 E1.40126
G1 X157.448 Y134.544 E0.00537
G1 X157.351 Y134.809 E0.00885
G1 X157.230 Y134.970 E0.00631
G1 X157.044 Y135.107 E0.00725
G1 X157.568 Y135.157 F10800.000
;TYPE:External perimeter
G1 F1200.000
G1 X157.332 Y135.377 E0.01011
G1 X157.152 Y135.480 E0.00650
G1 X156.962 Y135.549 E0.00635
G1 X156.632 Y135.593 E0.01044
G1 X111.913 Y135.593 E1.40213
G1 X111.703 Y135.575 E0.00660
G1 X111.406 Y135.484 E0.00975
G1 X111.234 Y135.388 E0.00618
G1 X111.070 Y135.255 E0.00660
G1 X109.943 Y134.120 E0.05014
G1 X108.865 Y132.923 E0.05050
G1 X107.870 Y131.703 E0.04940
G1 X106.861 Y130.331 E0.05339
G1 X106.007 Y129.044 E0.04843
G1 X105.216 Y127.717 E0.04843
G1 X104.417 Y126.214 E0.05339
G1 X103.747 Y124.786 E0.04943
G1 X103.135 Y123.298 E0.05047
G1 X102.597 Y121.782 E0.05042
G1 X102.151 Y120.304 E0.04843
G1 X101.746 Y118.679 E0.05249
G1 X101.437 Y117.104 E0.05033
G1 X101.217 Y115.608 E0.04742
G1 X101.049 Y113.911 E0.05346
G1 X100.972 Y112.209 E0.05342
G1 X100.976 Y110.694 E0.04749
G1 X101.058 Y109.091 E0.05033
G1 X101.226 Y107.427 E0.05246
G1 X101.456 Y105.899 E0.04843
G1 X101.772 Y104.323 E0.05042
G1 X102.165 Y102.761 E0.05050
G1 X102.624 Y101.253 E0.04940
G1 X103.200 Y99.651 E0.05339
G1 X103.793 Y98.225 E0.04843
G1 X104.454 Y96.829 E0.04843
G1 X105.256 Y95.327 E0.05339
G1 X106.068 Y93.976 E0.04943
G1 X106.963 Y92.638 E0.05047
G1 X107.921 Y91.347 E0.05042
G1 X108.900 Y90.152 E0.04843
G1 X110.043 Y88.890 E0.05339
G1 X111.158 Y87.776 E0.04943
G1 X112.351 Y86.694 E0.05047
G1 X113.594 Y85.674 E0.05042
G1 X114.833 Y84.753 E0.04843
G1 X116.224 Y83.820 E0.05249
G1 X117.600 Y82.994 E0.05033
G1 X118.933 Y82.279 E0.04742
G1 X120.472 Y81.546 E0.05346
G1 X122.047 Y80.896 E0.05342
G1 X123.473 Y80.385 E0.04749
G1 X125.009 Y79.918 E0.05033
G1 X126.632 Y79.511 E0.05246
G1 X128.146 Y79.209 E0.04843
G1 X129.736 Y78.971 E0.05042
G1 X131.339 Y78.811 E0.05050
G1 X132.748 Y78.738 E0.04423
G1 X134.552 Y78.726 E0.05658
G1 X136.158 Y78.802 E0.05040
G1 X137.759 Y78.957 E0.05042
G1 X139.352 Y79.190 E0.05050
G1 X140.927 Y79.500 E0.05033
G1 X142.490 Y79.887 E0.05047
G1 X144.029 Y80.350 E0.05042
G1 X145.545 Y80.888 E0.05041
G1 X147.060 Y81.512 E0.05140
G1 X148.487 Y82.183 E0.04943
G1 X149.909 Y82.938 E0.05047
G1 X151.290 Y83.760 E0.05041
G1 X152.708 Y84.705 E0.05343
G1 X153.949 Y85.622 E0.04838
G1 X155.269 Y86.706 E0.05354
G1 X156.368 Y87.696 E0.04637
G1 X157.571 Y88.901 E0.05341
G1 X157.732 Y89.163 E0.00964
G1 X157.822 Y89.456 E0.00961
G1 X157.840 Y89.666 E0.00660
G1 X157.840 Y134.389 E1.40227
G1 X157.821 Y134.609 E0.00692
G1 X157.767 Y134.809 E0.00650
G1 X157.679 Y134.997 E0.00651
G1 X157.602 Y135.108 E0.00422
G1 X157.252 Y135.094 F10800.000
;WIPE_START
G1 F8640.000
G1 X157.332 Y135.377 E-0.08806
G1 X157.152 Y135.480 E-0.04786
G1 X156.962 Y135.549 E-0.04676
G1 X156.632 Y135.593 E-0.07689
G1 X154.464 Y135.593 E-0.50042
;WIPE_END
G1 E-0.04000 F2100.000
G1 Z0.600 F10800.000
G1 X157.342 Y89.596
G1 Z0.200
G1 E0.80000 F2100.000
;TYPE:Solid infill
;WIDTH:0.421417
G1 F1200.000
G1 X155.914 Y88.176 E0.06338
G1 X154.839 Y87.206 E0.04557
G1 X153.544 Y86.143 E0.05273
G1 X152.816 Y85.605 E0.02848
G1 X157.180 Y89.969 E0.19423
G1 X157.180 Y90.504 E0.01685
G1 X151.105 Y84.429 E0.27039
G1 X149.753 Y83.612 E0.04972
G1 X157.180 Y91.040 E0.33057
G1 X157.180 Y91.575 E0.01685
G1 X148.589 Y82.984 E0.38238
G1 X148.192 Y82.773 E0.01413
G1 X147.533 Y82.463 E0.02292
G1 X157.180 Y92.110 E0.42936
G1 X157.180 Y92.645 E0.01685
G1 X146.550 Y82.015 E0.47312
G1 X145.640 Y81.641 E0.03097
G1 X157.180 Y93.181 E0.51362
G1 X157.180 Y93.716 E0.01685
G1 X144.781 Y81.317 E0.55185
G1 X143.951 Y81.023 E0.02771
G1 X157.180 Y94.251 E0.58879
G1 X157.180 Y94.787 E0.01685
G1 X143.176 Y80.782 E0.62330
G1 X142.410 Y80.552 E0.02516
G1 X157.180 Y95.322 E0.65737
G1 X157.180 Y95.857 E0.01685
G1 X141.692 Y80.369 E0.68935
M73 P3 R41
M73 Q3 S41
G1 X140.980 Y80.192 E0.02308
G1 X157.180 Y96.392 E0.72103
G1 X157.180 Y96.928 E0.01685
G1 X140.301 Y80.049 E0.75124
G1 X139.635 Y79.918 E0.02137
G1 X157.180 Y97.463 E0.78090
G1 X157.180 Y97.998 E0.01685
G1 X156.070 Y96.888 E0.04941
G1 X155.254 Y95.707 E0.04516
G1 X154.955 Y95.774 E0.00963
G1 X138.985 Y79.803 E0.71082
G1 X138.358 Y79.711 E0.01994
G1 X154.517 Y95.870 E0.71922
G1 X154.078 Y95.967 E0.01413
G1 X137.731 Y79.620 E0.72761
G1 X137.135 Y79.560 E0.01883
G1 X153.640 Y96.064 E0.73460
G1 X153.202 Y96.161 E0.01413
G1 X136.543 Y79.502 E0.74145
M73 P3 R40
G1 X135.959 Y79.454 E0.01845
G1 X152.763 Y96.258 E0.74794
G1 X152.325 Y96.355 E0.01413
G1 X135.397 Y79.427 E0.75344
G1 X134.835 Y79.400 E0.01770
G1 X151.887 Y96.452 E0.75893
G1 X151.448 Y96.549 E0.01413
G1 X134.287 Y79.388 E0.76380
G1 X133.756 Y79.392 E0.01673
G1 X151.010 Y96.646 E0.76795
G1 X150.571 Y96.743 E0.01413
G1 X133.224 Y79.395 E0.77211
G1 X132.695 Y79.402 E0.01664
G1 X150.133 Y96.840 E0.77612
G1 X149.695 Y96.937 E0.01413
G1 X132.186 Y79.428 E0.77928
G1 X131.677 Y79.454 E0.01605
G1 X149.256 Y97.033 E0.78243
G1 X148.818 Y97.130 E0.01413
G1 X131.178 Y79.490 E0.78515
G1 X130.691 Y79.539 E0.01539
G1 X148.380 Y97.227 E0.78729
G1 X147.941 Y97.324 E0.01413
G1 X130.204 Y79.587 E0.78944
M73 P4 R40
M73 Q4 S41
G1 X129.722 Y79.640 E0.01527
G1 X147.503 Y97.421 E0.79140
G1 X147.065 Y97.518 E0.01413
G1 X129.257 Y79.710 E0.79260
G1 X128.791 Y79.780 E0.01481
G1 X146.626 Y97.615 E0.79381
G1 X146.188 Y97.712 E0.01413
G1 X128.326 Y79.850 E0.79502
G1 X127.877 Y79.936 E0.01439
G1 X145.750 Y97.809 E0.79550
G1 X145.311 Y97.906 E0.01413
M73 Q4 S40
G1 X127.430 Y80.025 E0.79585
G1 X126.984 Y80.114 E0.01432
G1 X144.873 Y98.003 E0.79620
G1 X144.434 Y98.100 E0.01413
G1 X126.548 Y80.213 E0.79612
G1 X126.120 Y80.320 E0.01389
G1 X143.996 Y98.196 E0.79566
G1 X143.558 Y98.293 E0.01413
G1 X125.691 Y80.427 E0.79520
G1 X125.263 Y80.534 E0.01389
G1 X143.119 Y98.390 E0.79474
G1 X142.681 Y98.487 E0.01413
G1 X124.850 Y80.656 E0.79364
G1 X124.440 Y80.781 E0.01350
G1 X142.243 Y98.584 E0.79239
G1 X141.804 Y98.681 E0.01413
G1 X124.029 Y80.906 E0.79114
G1 X123.621 Y81.033 E0.01345
G1 X141.366 Y98.778 E0.78978
G1 X140.928 Y98.875 E0.01413
G1 X123.227 Y81.174 E0.78782
G1 X122.833 Y81.315 E0.01318
G1 X140.489 Y98.972 E0.78585
G1 X140.051 Y99.069 E0.01413
G1 X122.439 Y81.457 E0.78389
G1 X122.054 Y81.607 E0.01300
G1 X139.613 Y99.166 E0.78151
M73 P5 R40
G1 X139.174 Y99.263 E0.01413
G1 X121.675 Y81.763 E0.77886
M73 Q5 S40
G1 X121.296 Y81.920 E0.01290
G1 X138.736 Y99.359 E0.77621
G1 X138.297 Y99.456 E0.01413
G1 X120.917 Y82.076 E0.77356
G1 X120.547 Y82.241 E0.01276
G1 X137.859 Y99.553 E0.77052
G1 X137.421 Y99.650 E0.01413
G1 X120.185 Y82.414 E0.76715
G1 X119.822 Y82.587 E0.01264
G1 X136.982 Y99.747 E0.76378
G1 X136.544 Y99.844 E0.01413
G1 X119.459 Y82.759 E0.76041
G1 X119.231 Y82.868 E0.00796
G1 X119.102 Y82.937 E0.00460
G1 X136.106 Y99.941 E0.75680
G1 X135.667 Y100.038 E0.01413
G1 X118.754 Y83.124 E0.75279
G1 X118.405 Y83.311 E0.01244
G1 X135.229 Y100.135 E0.74879
G1 X134.791 Y100.232 E0.01413
G1 X118.057 Y83.498 E0.74478
G1 X117.926 Y83.568 E0.00468
G1 X117.717 Y83.694 E0.00766
G1 X134.352 Y100.329 E0.74039
G1 X133.914 Y100.426 E0.01413
G1 X117.383 Y83.894 E0.73577
G1 X117.048 Y84.095 E0.01228
G1 X133.476 Y100.522 E0.73115
G1 X133.037 Y100.619 E0.01413
G1 X116.714 Y84.296 E0.72653
G1 X116.578 Y84.378 E0.00500
G1 X116.388 Y84.505 E0.00720
G1 X132.599 Y100.716 E0.72154
