; generated by PrusaSlicer 2.3.0+win64 on 2021-05-04 at 19:04:24 UTC

; 

; external perimeters extrusion width = 0.45mm
; perimeters extrusion width = 0.45mm
; infill extrusion width = 0.45mm
; solid infill extrusion width = 0.45mm
; top infill extrusion width = 0.40mm
; first layer extrusion width = 0.42mm

M73 P0 R42
M73 Q0 S43
M201 X1000 Y1000 Z200 E5000 ; sets maximum accelerations, mm/sec^2
M203 X200 Y200 Z12 E120 ; sets maximum feedrates, mm/sec
M204 P1250 R1250 T1250 ; sets acceleration (P, T) and retract acceleration (R), mm/sec^2
M205 X8.00 Y8.00 Z0.40 E4.50 ; sets the jerk limits, mm/sec
M205 S0 T0 ; sets the minimum extruding and travel feed rate, mm/sec
M107
;TYPE:Custom
M862.3 P "MK3S" ; printer model check
M862.1 P0.4 ; nozzle diameter check
M115 U3.9.3 ; tell printer latest fw version
G90 ; use absolute coordinates
M83 ; extruder relative mode
M104 S240 ; set extruder temp
M140 S85 ; set bed temp
M190 S85 ; wait for bed temp
M109 S240 ; wait for extruder temp
G28 W ; home all without mesh bed level
G80 ; mesh bed leveling
G1 Y-3.0 F1000.0 ; go outside print area
G92 E0.0
G1 X60.0 E9.0 F1000.0 ; intro line
G1 X100.0 E12.5 F1000.0 ; intro line
G92 E0.0
M221 S95

; Don't change E values below. Excessive value can damage the printer.
M907 E430 ; set extruder motor current
G21 ; set units to millimeters
G90 ; use absolute coordinates
M83 ; use relative distances for extrusion
M900 K0.08 ; Filament gcode LA 1.5
M900 K45 ; Filament gcode LA 1.0
;LAYER_CHANGE
;Z:0.2
;HEIGHT:0.2
;BEFORE_LAYER_CHANGE
G92 E0.0
;0.2


G1 E-1.40000 F2100.000
G1 Z0.200 F10800.000
;AFTER_LAYER_CHANGE
;0.2
G1 Z0.400
G1 X67.843 Y58.242
G1 Z0.200
G1 E1.40000 F2100.000
M204 S1000
;TYPE:Skirt
;WIDTH:0.42
G1 F1200.000
G1 X69.943 Y55.797 E0.10106
G1 X73.651 Y51.948 E0.16757
G1 X77.125 Y48.752 E0.14802
G1 X80.460 Y46.000 E0.13558
G1 X83.966 Y43.400 E0.13682
G1 X87.767 Y40.884 E0.14295
G1 X92.081 Y38.369 E0.15656
G1 X96.284 Y36.234 E0.14782
G1 X100.882 Y34.219 E0.15741
G1 X105.263 Y32.596 E0.14646
G1 X109.458 Y31.294 E0.13772
G1 X113.868 Y30.179 E0.14264
G1 X118.196 Y29.328 E0.13830
G1 X123.124 Y28.642 E0.15601
G1 X127.705 Y28.273 E0.14410
G1 X132.527 Y28.147 E0.15124
G1 X135.389 Y28.204 E0.08974
G1 X138.823 Y28.403 E0.10786
G1 X142.346 Y28.753 E0.11100
G1 X145.801 Y29.246 E0.10942
G1 X149.378 Y29.911 E0.11408
G1 X151.982 Y30.498 E0.08371
G1 X154.752 Y31.214 E0.08971
G1 X157.887 Y32.153 E0.10258
G1 X161.080 Y33.247 E0.10584
G1 X163.638 Y34.230 E0.08592
G1 X166.369 Y35.385 E0.09298
G1 X169.476 Y36.842 E0.10758
G1 X172.207 Y38.256 E0.09644
G1 X174.671 Y39.642 E0.08863
G1 X177.280 Y41.231 E0.09580
G1 X180.271 Y43.220 E0.11262
G1 X183.371 Y45.488 E0.12043
G1 X185.834 Y47.454 E0.09880
G1 X190.064 Y51.198 E0.17714
G1 X192.540 Y53.647 E0.10918
G1 X194.179 Y55.403 E0.07532
G1 X196.058 Y57.640 E0.09162
G1 X197.629 Y59.706 E0.08136
G1 X199.109 Y61.880 E0.08246
G1 X200.474 Y64.128 E0.08246
M73 Q0 S42
G1 X201.823 Y66.615 E0.08870
G1 X202.995 Y69.086 E0.08576
G1 X204.014 Y71.567 E0.08411
G1 X204.963 Y74.269 E0.08980
G1 X205.711 Y76.809 E0.08301
G1 X206.324 Y79.385 E0.08301
G1 X206.800 Y81.961 E0.08214
G1 X207.126 Y84.288 E0.07367
G1 X207.347 Y86.697 E0.07586
G1 X207.452 Y89.114 E0.07586
G1 X207.446 Y136.533 E1.48678
G1 X207.125 Y140.976 E0.13965
G1 X206.482 Y145.133 E0.13191
G1 X205.417 Y149.516 E0.14142
G1 X204.083 Y153.543 E0.13301
G1 X202.844 Y156.522 E0.10115
G1 X201.300 Y159.675 E0.11010
G1 X199.676 Y162.503 E0.10224
G1 X197.850 Y165.254 E0.10352
G1 X195.934 Y167.806 E0.10005
G1 X193.861 Y170.232 E0.10005
G1 X191.475 Y172.687 E0.10736
G1 X189.130 Y174.825 E0.09950
G1 X186.613 Y176.843 E0.10115
G1 X183.827 Y178.803 E0.10681
G1 X181.109 Y180.474 E0.10005
G1 X178.306 Y181.963 E0.09950
G1 X175.254 Y183.354 E0.10517
G1 X172.241 Y184.506 E0.10115
G1 X169.194 Y185.453 E0.10005
G1 X165.817 Y186.282 E0.10902
G1 X163.456 Y186.721 E0.07532
G1 X161.058 Y187.048 E0.07586
G1 X158.434 Y187.282 E0.08263
G1 X155.981 Y187.385 E0.07696
G1 X110.272 Y187.393 E1.43318
G1 X107.625 Y187.320 E0.08301
G1 X104.892 Y187.104 E0.08597
G1 X102.387 Y186.785 E0.07916
G1 X99.850 Y186.330 E0.08081
G1 X97.340 Y185.747 E0.08081
M73 P1 R42
G1 X94.769 Y185.023 E0.08374
G1 X92.262 Y184.173 E0.08301
M73 Q1 S42
G1 X89.834 Y183.207 E0.08191
G1 X87.276 Y182.038 E0.08819
G1 X84.150 Y180.374 E0.11104
G1 X81.149 Y178.495 E0.11102
G1 X78.144 Y176.327 E0.11618
G1 X75.310 Y173.950 E0.11598
G1 X71.950 Y170.692 E0.14674
G1 X68.872 Y167.342 E0.14263
G1 X66.139 Y164.039 E0.13442
G1 X63.642 Y160.687 E0.13107
G1 X61.218 Y157.064 E0.13668
G1 X59.095 Y153.515 E0.12966
G1 X57.124 Y149.815 E0.13143
G1 X55.386 Y146.124 E0.12791
G1 X53.774 Y142.214 E0.13262
G1 X52.354 Y138.203 E0.13339
G1 X51.152 Y134.174 E0.13183
G1 X50.101 Y129.845 E0.13970
G1 X49.220 Y125.073 E0.15215
G1 X48.664 Y120.768 E0.13610
G1 X48.284 Y115.404 E0.16860
G1 X48.236 Y110.663 E0.14866
G1 X48.434 Y106.187 E0.14047
G1 X48.887 Y101.608 E0.14428
G1 X49.550 Y97.283 E0.13720
G1 X50.561 Y92.484 E0.15379
G1 X51.903 Y87.589 E0.15915
G1 X53.361 Y83.236 E0.14391
G1 X55.237 Y78.559 E0.15801
G1 X57.069 Y74.639 E0.13568
G1 X59.155 Y70.722 E0.13914
G1 X61.423 Y66.960 E0.13773
G1 X64.119 Y62.988 E0.15051
G1 X67.116 Y59.089 E0.15420
G1 X67.804 Y58.288 E0.03310
; printing object body909811 id:0 copy 0
;WIPE_START
G1 F8640.000
G1 X69.943 Y55.797 E-0.75812
G1 X71.661 Y54.013 E-0.57188
;WIPE_END
G1 E-0.07000 F2100.000
G1 Z0.400 F10800.000
G1 X107.894 Y92.942
G1 Z0.200
G1 E1.40000 F2100.000
;TYPE:Perimeter
G1 F1200.000
G1 X108.714 Y92.253 E0.03358
G1 X112.705 Y94.411 E0.14228
G1 X112.368 Y88.634 E0.18144
G1 X113.356 Y88.189 E0.03398
G1 X127.622 Y102.375 E0.63080
G1 X153.572 Y96.638 E0.83330
G1 X154.175 Y97.503 E0.03304
G1 X146.046 Y110.145 E0.47125
G1 X143.193 Y109.369 E0.09268
G1 X133.883 Y123.849 E0.53976
G1 X126.683 Y126.172 E0.23720
G1 X126.683 Y134.683 E0.26685
G1 X125.709 Y135.085 E0.03305
G1 X118.104 Y127.419 E0.33855
G1 X119.939 Y116.217 E0.35591
G1 X114.579 Y112.911 E0.19746
G1 X107.913 Y92.999 E0.65837
G1 X108.333 Y93.066 F10800.000
;TYPE:External perimeter
G1 F1200.000
G1 X108.760 Y92.707 E0.01749
G1 X113.121 Y95.065 E0.15545
G1 X112.760 Y88.872 E0.19452
G1 X113.275 Y88.640 E0.01770
G1 X127.502 Y102.788 E0.62912
M73 P1 R41
G1 X153.407 Y97.061 E0.83184
G1 X153.721 Y97.511 E0.01721
G1 X145.878 Y109.708 E0.45467
G1 X143.026 Y108.933 E0.09268
G1 X133.638 Y123.532 E0.54420
G1 X126.306 Y125.898 E0.24158
G1 X126.306 Y134.431 E0.26754
G1 X125.798 Y134.640 E0.01722
G1 X118.507 Y127.290 E0.32460
G1 X120.352 Y116.029 E0.35780
G1 X114.893 Y112.662 E0.20110
G1 X108.352 Y93.123 E0.64604
G1 X108.098 Y92.742 F10800.000
;WIPE_START
G1 F8640.000
G1 X108.760 Y92.707 E-0.13451
G1 X113.121 Y95.065 E-1.14478
G1 X113.108 Y94.846 E-0.05070
;WIPE_END
G1 E-0.07000 F2100.000
G1 Z0.400 F10800.000
G1 X155.434 Y135.751
M73 P2 R41
G1 Z0.200
G1 E1.40000 F2100.000
;TYPE:Perimeter
G1 F1200.000
G1 X155.314 Y135.794 E0.00401
G1 X155.049 Y135.829 E0.00837
G1 X110.371 Y135.829 E1.40086
M73 Q2 S42
G1 X110.217 Y135.816 E0.00484
G1 X109.997 Y135.748 E0.00722
G1 X109.888 Y135.688 E0.00391
G1 X109.765 Y135.588 E0.00495
G1 X108.659 Y134.475 E0.04920
G1 X107.594 Y133.291 E0.04993
G1 X106.610 Y132.085 E0.04881
G1 X105.612 Y130.729 E0.05280
G1 X104.769 Y129.456 E0.04786
G1 X103.987 Y128.145 E0.04786
G1 X103.196 Y126.658 E0.05280
G1 X102.535 Y125.248 E0.04885
G1 X101.930 Y123.776 E0.04989
G1 X101.398 Y122.278 E0.04984
G1 X100.957 Y120.817 E0.04786
G1 X100.557 Y119.211 E0.05191
G1 X100.251 Y117.654 E0.04975
G1 X100.033 Y116.175 E0.04686
G1 X99.868 Y114.497 E0.05286
G1 X99.792 Y112.814 E0.05283
G1 X99.796 Y111.318 E0.04692
G1 X99.876 Y109.733 E0.04975
G1 X100.043 Y108.087 E0.05187
G1 X100.270 Y106.578 E0.04786
G1 X100.582 Y105.019 E0.04984
G1 X100.971 Y103.475 E0.04993
G1 X101.424 Y101.986 E0.04881
G1 X101.994 Y100.401 E0.05280
G1 X102.580 Y98.992 E0.04786
G1 X103.233 Y97.612 E0.04786
G1 X104.027 Y96.127 E0.05280
G1 X104.829 Y94.791 E0.04885
G1 X105.713 Y93.469 E0.04989
G1 X106.661 Y92.192 E0.04984
G1 X107.628 Y91.012 E0.04785
G1 X108.759 Y89.763 E0.05280
G1 X109.861 Y88.662 E0.04885
G1 X111.040 Y87.593 E0.04989
G1 X112.268 Y86.585 E0.04984
G1 X113.493 Y85.674 E0.04786
G1 X114.868 Y84.752 E0.05191
G1 X116.229 Y83.936 E0.04975
G1 X117.546 Y83.229 E0.04686
G1 X119.068 Y82.504 E0.05286
G1 X120.625 Y81.861 E0.05283
G1 X122.034 Y81.357 E0.04692
G1 X123.552 Y80.895 E0.04975
G1 X125.157 Y80.493 E0.05187
G1 X126.653 Y80.194 E0.04786
G1 X128.225 Y79.959 E0.04984
G1 X129.810 Y79.800 E0.04993
G1 X131.201 Y79.729 E0.04368
G1 X132.987 Y79.717 E0.05600
G1 X134.573 Y79.792 E0.04979
G1 X136.155 Y79.945 E0.04984
G1 X137.731 Y80.175 E0.04992
G1 X139.288 Y80.481 E0.04975
G1 X140.832 Y80.864 E0.04989
G1 X142.354 Y81.322 E0.04984
G1 X143.852 Y81.854 E0.04983
G1 X145.351 Y82.471 E0.05082
G1 X146.761 Y83.134 E0.04886
G1 X148.166 Y83.880 E0.04989
G1 X149.532 Y84.693 E0.04982
G1 X150.934 Y85.627 E0.05284
G1 X152.160 Y86.533 E0.04779
G1 X153.466 Y87.605 E0.05297
G1 X154.551 Y88.583 E0.04581
G1 X155.567 Y89.591 E0.04487
G1 X155.712 Y89.745 E0.00665
G1 X155.828 Y89.933 E0.00691
G1 X155.892 Y90.141 E0.00683
G1 X155.905 Y90.295 E0.00484
G1 X155.905 Y134.986 E1.40126
G1 X155.890 Y135.157 E0.00537
G1 X155.793 Y135.422 E0.00885
G1 X155.672 Y135.583 E0.00631
G1 X155.486 Y135.721 E0.00725
G1 X156.010 Y135.771 F10800.000
;TYPE:External perimeter
G1 F1200.000
G1 X155.774 Y135.990 E0.01011
G1 X155.594 Y136.094 E0.00650
G1 X155.404 Y136.163 E0.00635
G1 X155.074 Y136.206 E0.01044
G1 X110.355 Y136.206 E1.40213
G1 X110.145 Y136.188 E0.00660
G1 X109.848 Y136.097 E0.00975
G1 X109.676 Y136.001 E0.00618
G1 X109.512 Y135.869 E0.00660
G1 X108.385 Y134.734 E0.05014
G1 X107.308 Y133.537 E0.05050
G1 X106.312 Y132.316 E0.04940
G1 X105.303 Y130.945 E0.05339
G1 X104.450 Y129.657 E0.04843
G1 X103.658 Y128.330 E0.04843
G1 X102.859 Y126.827 E0.05339
G1 X102.189 Y125.400 E0.04943
G1 X101.577 Y123.911 E0.05047
G1 X101.039 Y122.396 E0.05042
G1 X100.594 Y120.917 E0.04843
G1 X100.189 Y119.293 E0.05249
G1 X99.879 Y117.718 E0.05033
G1 X99.659 Y116.221 E0.04742
G1 X99.492 Y114.524 E0.05346
G1 X99.415 Y112.822 E0.05342
G1 X99.419 Y111.308 E0.04749
G1 X99.500 Y109.705 E0.05033
G1 X99.668 Y108.040 E0.05246
G1 X99.898 Y106.513 E0.04843
G1 X100.214 Y104.936 E0.05042
G1 X100.607 Y103.374 E0.05050
G1 X101.066 Y101.867 E0.04940
G1 X101.642 Y100.265 E0.05339
G1 X102.236 Y98.839 E0.04843
G1 X102.896 Y97.442 E0.04843
G1 X103.699 Y95.941 E0.05339
G1 X104.510 Y94.589 E0.04943
G1 X105.405 Y93.251 E0.05047
G1 X106.364 Y91.960 E0.05042
G1 X107.343 Y90.766 E0.04843
G1 X108.485 Y89.503 E0.05339
G1 X109.601 Y88.389 E0.04943
G1 X110.793 Y87.308 E0.05047
G1 X112.036 Y86.288 E0.05042
G1 X113.276 Y85.366 E0.04843
G1 X114.666 Y84.434 E0.05249
G1 X116.042 Y83.608 E0.05033
G1 X117.375 Y82.893 E0.04742
G1 X118.914 Y82.160 E0.05346
G1 X120.489 Y81.509 E0.05342
G1 X121.915 Y80.999 E0.04749
G1 X123.451 Y80.531 E0.05033
G1 X125.074 Y80.125 E0.05246
G1 X126.588 Y79.823 E0.04843
G1 X128.179 Y79.584 E0.05042
G1 X129.782 Y79.424 E0.05050
G1 X131.190 Y79.352 E0.04423
G1 X132.995 Y79.340 E0.05658
G1 X134.600 Y79.416 E0.05040
G1 X136.201 Y79.570 E0.05042
G1 X137.795 Y79.803 E0.05050
G1 X139.370 Y80.113 E0.05033
G1 X140.932 Y80.501 E0.05047
G1 X142.472 Y80.964 E0.05042
G1 X143.987 Y81.501 E0.05041
G1 X145.503 Y82.126 E0.05140
G1 X146.930 Y82.796 E0.04943
G1 X148.351 Y83.551 E0.05047
G1 X149.733 Y84.374 E0.05041
G1 X151.151 Y85.319 E0.05343
G1 X152.392 Y86.236 E0.04838
G1 X153.712 Y87.319 E0.05354
G1 X154.810 Y88.309 E0.04637
G1 X156.013 Y89.515 E0.05341
G1 X156.174 Y89.776 E0.00964
G1 X156.264 Y90.069 E0.00961
G1 X156.282 Y90.279 E0.00660
G1 X156.282 Y135.003 E1.40227
G1 X156.263 Y135.223 E0.00692
G1 X156.209 Y135.423 E0.00650
G1 X156.121 Y135.611 E0.00651
G1 X156.045 Y135.721 E0.00422
G1 X155.694 Y135.707 F10800.000
;WIPE_START
G1 F8640.000
G1 X155.774 Y135.990 E-0.08806
G1 X155.594 Y136.094 E-0.04786
G1 X155.404 Y136.163 E-0.04676
G1 X155.074 Y136.206 E-0.07689
G1 X150.438 Y136.206 E-1.07042
;WIPE_END
G1 E-0.07000 F2100.000
G1 Z0.400 F10800.000
G1 X155.784 Y90.209
G1 Z0.200
G1 E1.40000 F2100.000
;TYPE:Solid infill
;WIDTH:0.421417
G1 F1200.000
G1 X154.356 Y88.789 E0.06338
G1 X153.281 Y87.819 E0.04557
G1 X151.986 Y86.756 E0.05273
G1 X151.258 Y86.219 E0.02848
G1 X155.622 Y90.582 E0.19423
G1 X155.622 Y91.118 E0.01685
G1 X149.547 Y85.043 E0.27039
G1 X148.195 Y84.226 E0.04972
G1 X155.622 Y91.653 E0.33057
G1 X155.622 Y92.188 E0.01685
G1 X147.031 Y83.597 E0.38238
G1 X146.634 Y83.387 E0.01413
G1 X145.975 Y83.077 E0.02292
G1 X155.622 Y92.724 E0.42936
M73 Q2 S41
G1 X155.622 Y93.259 E0.01685
G1 X144.992 Y82.629 E0.47312
G1 X144.082 Y82.254 E0.03097
G1 X155.622 Y93.794 E0.51362
M73 P3 R41
G1 X155.622 Y94.329 E0.01685
G1 X143.223 Y81.931 E0.55185
M73 Q3 S41
G1 X142.393 Y81.636 E0.02771
G1 X155.622 Y94.865 E0.58879
G1 X155.622 Y95.400 E0.01685
G1 X141.618 Y81.396 E0.62330
G1 X140.852 Y81.166 E0.02516
G1 X155.622 Y95.935 E0.65737
G1 X155.622 Y96.471 E0.01685
G1 X140.134 Y80.982 E0.68935
G1 X139.422 Y80.806 E0.02308
G1 X155.622 Y97.006 E0.72103
G1 X155.622 Y97.541 E0.01685
G1 X138.743 Y80.662 E0.75124
G1 X138.077 Y80.531 E0.02137
G1 X155.622 Y98.076 E0.78090
G1 X155.622 Y98.612 E0.01685
G1 X154.512 Y97.501 E0.04941
G1 X153.696 Y96.321 E0.04516
G1 X153.397 Y96.387 E0.00963
G1 X137.427 Y80.416 E0.71082
G1 X136.800 Y80.325 E0.01994
G1 X152.959 Y96.484 E0.71922
G1 X152.521 Y96.581 E0.01413
G1 X136.173 Y80.233 E0.72761
G1 X135.578 Y80.173 E0.01883
G1 X152.082 Y96.678 E0.73460
G1 X151.644 Y96.775 E0.01413
G1 X134.985 Y80.116 E0.74145
G1 X134.401 Y80.067 E0.01845
G1 X151.206 Y96.872 E0.74794
G1 X150.767 Y96.968 E0.01413
G1 X133.839 Y80.040 E0.75344
G1 X133.277 Y80.014 E0.01770
G1 X150.329 Y97.065 E0.75893
G1 X149.890 Y97.162 E0.01413
G1 X132.730 Y80.002 E0.76380
G1 X132.198 Y80.005 E0.01673
G1 X149.452 Y97.259 E0.76795
G1 X149.014 Y97.356 E0.01413
G1 X131.666 Y80.009 E0.77211
G1 X131.138 Y80.015 E0.01664
G1 X148.575 Y97.453 E0.77612
G1 X148.137 Y97.550 E0.01413
G1 X130.628 Y80.041 E0.77928
G1 X130.119 Y80.067 E0.01605
G1 X147.699 Y97.647 E0.78243
M73 P4 R41
M73 Q4 S41
G1 X147.260 Y97.744 E0.01413
G1 X129.620 Y80.103 E0.78515
M73 P4 R40
G1 X129.133 Y80.152 E0.01539
G1 X146.822 Y97.841 E0.78729
G1 X146.384 Y97.938 E0.01413
G1 X128.647 Y80.201 E0.78944
G1 X128.164 Y80.254 E0.01527
G1 X145.945 Y98.035 E0.79140
G1 X145.507 Y98.131 E0.01413
G1 X127.699 Y80.323 E0.79260
G1 X127.233 Y80.393 E0.01481
G1 X145.069 Y98.228 E0.79381
G1 X144.630 Y98.325 E0.01413
G1 X126.768 Y80.463 E0.79502
G1 X126.319 Y80.549 E0.01439
G1 X144.192 Y98.422 E0.79550
G1 X143.753 Y98.519 E0.01413
G1 X125.873 Y80.638 E0.79585
G1 X125.426 Y80.727 E0.01432
G1 X143.315 Y98.616 E0.79620
G1 X142.877 Y98.713 E0.01413
G1 X124.990 Y80.826 E0.79612
G1 X124.562 Y80.933 E0.01389
G1 X142.438 Y98.810 E0.79566
G1 X142.000 Y98.907 E0.01413
G1 X124.134 Y81.041 E0.79520
G1 X123.706 Y81.148 E0.01389
G1 X141.562 Y99.004 E0.79474
G1 X141.123 Y99.101 E0.01413
G1 X123.292 Y81.269 E0.79364
G1 X122.882 Y81.394 E0.01350
G1 X140.685 Y99.198 E0.79239
G1 X140.247 Y99.294 E0.01413
G1 X122.471 Y81.519 E0.79114
G1 X122.064 Y81.647 E0.01345
G1 X139.808 Y99.391 E0.78978
G1 X139.370 Y99.488 E0.01413
G1 X121.669 Y81.788 E0.78782
M73 P5 R40
G1 X121.275 Y81.929 E0.01318
G1 X138.932 Y99.585 E0.78585
M73 Q5 S41
G1 X138.493 Y99.682 E0.01413
G1 X120.881 Y82.070 E0.78389
G1 X120.496 Y82.220 E0.01300
G1 X138.055 Y99.779 E0.78151
G1 X137.616 Y99.876 E0.01413
G1 X120.117 Y82.377 E0.77886
G1 X119.738 Y82.533 E0.01290
G1 X137.178 Y99.973 E0.77621
G1 X136.740 Y100.070 E0.01413
G1 X119.360 Y82.690 E0.77356
M73 Q5 S40
G1 X118.989 Y82.855 E0.01276
G1 X136.301 Y100.167 E0.77052
G1 X135.863 Y100.264 E0.01413
G1 X118.627 Y83.028 E0.76715
G1 X118.264 Y83.200 E0.01264
G1 X135.425 Y100.361 E0.76378
G1 X134.986 Y100.457 E0.01413
G1 X117.902 Y83.373 E0.76041
G1 X117.673 Y83.482 E0.00796
G1 X117.544 Y83.551 E0.00460
G1 X134.548 Y100.554 E0.75680
G1 X134.110 Y100.651 E0.01413
G1 X117.196 Y83.738 E0.75279
G1 X116.848 Y83.925 E0.01244
G1 X133.671 Y100.748 E0.74879
